public/space-rising/footage-review-2026-04-29/thumbs/_luts/mLUT_Utility_Panasonic_V-Log_To_Rec709_v4_by_MotionVFX.cube
TITLE "This LUT converts V-log video to standard Rec709 image profile. Normal exposure shooting conditions."
LUT_3D_SIZE 9
0.028809 0.028809 0.028809
0.047072 0.028682 0.028682
0.189987 0.027695 0.027695
0.468346 0.025773 0.025773
0.772847 0.023669 0.023669
0.963258 0.022354 0.022354
0.991664 0.022158 0.022158
0.991664 0.022158 0.022158
0.991664 0.022158 0.022158
0.028745 0.038049 0.028745
0.034962 0.035381 0.028720
0.164487 0.027871 0.027871
0.448247 0.025911 0.025911
0.759405 0.023762 0.023762
0.959962 0.022377 0.022377
0.991664 0.022158 0.022158
0.991664 0.022158 0.022158
0.991664 0.022158 0.022158
0.028149 0.124370 0.028149
0.028188 0.118658 0.028188
0.103050 0.105875 0.027756
0.396927 0.081591 0.025881
0.724568 0.050299 0.023820
0.950880 0.022440 0.022440
0.991664 0.022158 0.022158
0.991664 0.022158 0.022158
0.991664 0.022158 0.022158
0.026638 0.343082 0.026638
0.026678 0.337297 0.026678
0.028061 0.323499 0.026764
0.290759 0.298017 0.025114
0.653354 0.254853 0.022892
0.929429 0.193147 0.021401
0.991259 0.115843 0.021509
0.991518 0.043301 0.022012
0.991664 0.022158 0.022158
0.024839 0.603504 0.024839
0.024869 0.599093 0.024869
0.024948 0.587740 0.024948
0.111249 0.570330 0.024469
0.528521 0.538889 0.021785
0.881329 0.493799 0.019645
0.987588 0.434120 0.019321
0.989369 0.354458 0.019863
0.990143 0.242416 0.020637
0.023098 0.855601 0.023098
0.023115 0.853069 0.023115
0.023161 0.846437 0.023161
0.023247 0.833974 0.023247
0.328829 0.816988 0.021240
0.776425 0.787957 0.018329
0.976617 0.748642 0.017210
0.987017 0.695023 0.017510
0.987532 0.620441 0.018025
0.022261 0.976731 0.022261
0.022265 0.976219 0.022265
0.022274 0.974920 0.022274
0.022291 0.972372 0.022291
0.039101 0.968492 0.022201
0.583730 0.959421 0.018476
0.942213 0.947475 0.016066
0.985381 0.931875 0.015874
0.985560 0.905973 0.016053
0.022158 0.991664 0.022158
0.022158 0.991664 0.022158
0.022158 0.991664 0.022158
0.022158 0.991664 0.022158
0.022158 0.991664 0.022158
0.258512 0.990032 0.020525
0.831822 0.986275 0.016564
0.984871 0.985164 0.015507
0.985020 0.984091 0.015514
0.022158 0.991664 0.022158
0.022158 0.991664 0.022158
0.022158 0.991664 0.022158
0.022158 0.991664 0.022158
0.022158 0.991664 0.022158
0.022158 0.991664 0.022158
0.552657 0.988000 0.018494
0.962917 0.985166 0.015660
0.985014 0.985014 0.015507
0.028760 0.028760 0.035833
0.045198 0.028648 0.035581
0.187045 0.027673 0.033883
0.466542 0.025754 0.030317
0.772362 0.023659 0.025679
0.963073 0.022355 0.022355
0.991664 0.022158 0.022158
0.991664 0.022158 0.022158
0.991664 0.022158 0.022158
0.028727 0.035873 0.033514
0.033260 0.033260 0.033260
0.160946 0.027870 0.031604
0.446111 0.025912 0.027978
0.758123 0.023771 0.023771
0.959664 0.022379 0.022379
0.991664 0.022158 0.022158
0.991664 0.022158 0.022158
0.991664 0.022158 0.022158
0.028176 0.120344 0.028176
0.028213 0.114964 0.028213
0.100129 0.102121 0.027803
0.394326 0.078122 0.025923
0.722718 0.047432 0.023853
0.950041 0.022445 0.022445
0.991664 0.022158 0.022158
0.991664 0.022158 0.022158
0.991664 0.022158 0.022158
0.026670 0.338458 0.026670
0.026709 0.332780 0.026709
0.026806 0.318771 0.026806
0.286562 0.292927 0.025179
0.650556 0.249527 0.022949
0.928496 0.187771 0.021445
0.991287 0.111165 0.021541
0.991538 0.040429 0.022032
0.991664 0.022158 0.022158
0.024864 0.599867 0.024864
0.024894 0.595548 0.024894
0.024973 0.584147 0.024973
0.107608 0.566745 0.024519
0.525523 0.535206 0.021832
0.879870 0.489710 0.019683
0.987543 0.429979 0.019350
0.989401 0.349868 0.019894
0.990181 0.236982 0.020674
0.023112 0.853579 0.023112
0.023129 0.851016 0.023129
0.023176 0.844303 0.023176
0.023263 0.831716 0.023263
0.324972 0.814617 0.021283
0.774375 0.785405 0.018361
0.976383 0.745751 0.017231
0.987038 0.691920 0.017532
0.987556 0.616964 0.018049
0.022264 0.976345 0.022264
0.022267 0.975836 0.022267
0.022277 0.974490 0.022277
0.022294 0.971898 0.022294
0.036916 0.967949 0.022220
0.580770 0.958794 0.018501
0.941529 0.946733 0.016076
0.985388 0.930886 0.015881
0.985569 0.904641 0.016062
0.022158 0.991664 0.022158
0.022158 0.991664 0.022158
0.022158 0.991664 0.022158
0.022158 0.991664 0.022158
0.022158 0.991664 0.022158
0.254130 0.990062 0.020556
0.829982 0.986299 0.016577
0.984835 0.985142 0.015508
0.985021 0.984010 0.015514
0.022158 0.991664 0.022158
0.022158 0.991664 0.022158
0.022158 0.991664 0.022158
0.022158 0.991664 0.022158
0.022158 0.991664 0.022158
0.022158 0.991664 0.022158
0.549458 0.988022 0.018516
0.962512 0.985169 0.015663
0.985014 0.985014 0.015507
0.028251 0.028251 0.109501
0.039813 0.028170 0.109648
0.177025 0.027227 0.107958
0.459706 0.025293 0.103417
0.767796 0.023195 0.096931
0.961952 0.021898 0.089292
0.991259 0.021752 0.080890
0.991333 0.021826 0.070175
0.991416 0.021909 0.058121
0.028267 0.030048 0.105504
0.028492 0.028278 0.105414
0.150952 0.027440 0.103397
0.439127 0.025469 0.098634
0.754047 0.023323 0.092198
0.958566 0.021955 0.084496
0.991291 0.021784 0.076268
0.991362 0.021855 0.065994
0.991443 0.021936 0.054222
0.027795 0.109690 0.093635
0.027838 0.104252 0.092875
0.092103 0.092103 0.092103
0.387103 0.069161 0.087738
0.718612 0.040351 0.081275
0.948869 0.022101 0.073141
0.991368 0.021860 0.065228
0.991432 0.021926 0.055786
0.991506 0.021999 0.045151
0.026413 0.329102 0.072924
0.026460 0.323020 0.072268
0.026569 0.308636 0.070935
0.278385 0.282638 0.067683
0.646117 0.238519 0.061730
0.927243 0.175825 0.054857
0.991171 0.100614 0.048095
0.991459 0.033707 0.040108
0.991603 0.022096 0.031086
0.024762 0.593260 0.046166
0.024797 0.588769 0.045653
0.024886 0.577210 0.044389
0.099423 0.559214 0.042296
0.519444 0.527406 0.036776
0.877632 0.481546 0.030497
0.987445 0.420820 0.024998
0.989474 0.339207 0.019968
0.990271 0.223854 0.020765
0.023143 0.849092 0.023143
0.023161 0.846424 0.023161
0.023209 0.839430 0.023209
0.023299 0.826390 0.023299
0.315033 0.808558 0.021394
0.768915 0.778871 0.018444
0.975758 0.738667 0.017285
0.987094 0.683892 0.017587
0.987619 0.607872 0.018112
0.022271 0.975291 0.022271
0.022275 0.974760 0.022275
0.022284 0.973353 0.022284
0.022303 0.970663 0.022303
0.031611 0.966544 0.022267
0.573099 0.957231 0.018565
0.939703 0.944719 0.016103
0.985406 0.928287 0.015899
0.985593 0.901144 0.016087
0.022158 0.991664 0.022158
0.022158 0.991664 0.022158
0.022158 0.991664 0.022158
0.022158 0.991664 0.022158
0.022158 0.991664 0.022158
0.243345 0.990164 0.020630
0.825191 0.986354 0.016609
0.984735 0.985077 0.015509
0.985022 0.983789 0.015516
0.022158 0.991664 0.022158
0.022158 0.991664 0.022158
0.022158 0.991664 0.022158
0.022158 0.991664 0.022158
0.022158 0.991664 0.022158
0.022158 0.991664 0.022158
0.541646 0.988076 0.018570
0.961407 0.985177 0.015670
0.985014 0.985014 0.015507
0.026881 0.026881 0.307810
0.030114 0.026854 0.308477
0.157689 0.025972 0.307703
0.445126 0.024002 0.303530
0.758224 0.021868 0.297241
0.958779 0.020528 0.289315
0.989885 0.020379 0.279757
0.989981 0.020474 0.265946
0.990099 0.020593 0.248787
0.026915 0.026915 0.302969
0.026927 0.026927 0.301230
0.131712 0.026195 0.301688
0.423867 0.024191 0.297705
0.743792 0.022010 0.291365
0.955237 0.020594 0.283479
0.989925 0.020418 0.273992
0.990021 0.020514 0.260150
0.990141 0.020634 0.242735
0.026563 0.090058 0.290382
0.026604 0.085065 0.289566
0.076859 0.073704 0.289571
0.371267 0.053062 0.285716
0.707360 0.027877 0.278435
0.945159 0.020767 0.268655
0.990093 0.020523 0.258779
0.990125 0.020618 0.245028
0.990247 0.020740 0.227394
0.025225 0.307949 0.264971
0.025276 0.301695 0.263857
0.025402 0.285935 0.261464
0.260100 0.260100 0.260100
0.634456 0.215020 0.253427
0.922873 0.151744 0.244530
0.989987 0.080926 0.233923
0.990299 0.021959 0.218705
0.990439 0.020932 0.199636
0.023628 0.577971 0.224440
0.023667 0.573408 0.223457
0.023767 0.561666 0.220830
0.083901 0.543304 0.218852
0.506228 0.511004 0.212308
0.871763 0.464515 0.202655
0.986163 0.403277 0.191891
0.988513 0.319409 0.178038
0.989460 0.201592 0.159703
0.022199 0.840963 0.166968
0.022223 0.838351 0.166131
0.022290 0.831192 0.163621
0.022414 0.817935 0.159136
0.299618 0.799966 0.154463
0.761746 0.769647 0.144567
0.974431 0.728513 0.133306
0.986456 0.672458 0.120748
0.987107 0.594751 0.104863
0.021748 0.973516 0.099297
0.021757 0.972960 0.098469
0.021782 0.971485 0.096412
0.021826 0.968684 0.092895
0.022970 0.964278 0.088198
0.562138 0.954759 0.079698
0.937239 0.941709 0.069364
0.985130 0.924475 0.059386
0.985409 0.895981 0.047709
0.022048 0.991555 0.038036
0.022052 0.991558 0.037526
0.022060 0.991567 0.036267
0.022076 0.991582 0.034063
0.022097 0.991604 0.030938
0.225016 0.990340 0.026021
0.817662 0.986413 0.017213
0.984548 0.984937 0.015511
0.985025 0.983337 0.015519
0.022158 0.991664 0.022158
0.022158 0.991664 0.022158
0.022158 0.991664 0.022158
0.022158 0.991664 0.022158
0.022158 0.991664 0.022158
0.022158 0.991664 0.022158
0.527285 0.988175 0.018669
0.959288 0.985191 0.015685
0.985014 0.985014 0.015507
0.025183 0.025183 0.553717
0.025183 0.025183 0.553730
0.128835 0.024462 0.553765
0.422303 0.022435 0.551702
0.742738 0.020239 0.546950
0.953709 0.018813 0.540982
0.988126 0.018619 0.534486
0.988196 0.018690 0.524268
0.988286 0.018780 0.511259
0.025216 0.025216 0.548939
0.025216 0.025216 0.548939
0.105307 0.024653 0.549772
0.400776 0.022616 0.547112
0.727860 0.020374 0.542461
0.950032 0.018869 0.536652
0.988156 0.018649 0.530110
0.988225 0.018719 0.520040
0.988317 0.018810 0.506849
0.025004 0.063433 0.541215
0.025039 0.059216 0.540435
0.055937 0.049490 0.540316
0.345206 0.032593 0.538136
0.689082 0.020719 0.531675
0.939077 0.019024 0.525270
0.988390 0.018727 0.518721
0.988305 0.018798 0.508566
0.988396 0.018889 0.495377
0.023673 0.273946 0.522035
0.023722 0.267603 0.521307
0.023848 0.251254 0.519604
0.230765 0.224142 0.519516
0.615241 0.177914 0.514848
0.915529 0.116541 0.508187
0.988236 0.053815 0.500540
0.988446 0.018939 0.488167
0.988538 0.019032 0.474760
0.021944 0.552898 0.491639
0.021980 0.548327 0.491021
0.022079 0.536154 0.489042
0.061527 0.516956 0.488197
0.484194 0.484194 0.484194
0.860990 0.436525 0.477258
0.983908 0.373863 0.469959
0.986789 0.285373 0.459839
0.987728 0.164207 0.446096
0.020345 0.825529 0.448971
0.020372 0.822567 0.448076
0.020436 0.815231 0.446155
0.020555 0.801473 0.442823
0.271526 0.782719 0.440672
0.746446 0.751149 0.433514
0.970935 0.708294 0.425316
0.984558 0.650485 0.415550
0.985214 0.570247 0.401474
0.019741 0.968882 0.392373
0.019751 0.968270 0.391561
0.019778 0.966636 0.389389
0.019824 0.963547 0.385838
0.019898 0.958356 0.380334
0.541649 0.948753 0.375633
0.931073 0.934738 0.365931
0.983129 0.916113 0.355341
0.983450 0.885467 0.339948
0.020130 0.989637 0.315695
0.020137 0.989643 0.314772
0.020153 0.989659 0.312461
0.020182 0.989688 0.308285
0.020224 0.989743 0.302055
0.196033 0.988744 0.296298
0.805768 0.984611 0.284849
0.982559 0.982965 0.272040
0.983369 0.981184 0.255820
0.020864 0.990370 0.209548
0.020869 0.990376 0.208719
0.020885 0.990392 0.206370
0.020918 0.990425 0.201665
0.020965 0.990471 0.194928
0.021029 0.990535 0.185634
0.508585 0.987216 0.175255
0.956106 0.984207 0.160426
0.984126 0.984126 0.143988
0.023445 0.023445 0.805381
0.023452 0.023452 0.804310
0.093339 0.022955 0.805847
0.389835 0.020906 0.804026
0.720339 0.018630 0.800649
0.946893 0.017080 0.796972
0.986340 0.016834 0.792957
0.986385 0.016879 0.786419
0.986445 0.016939 0.777776
0.023466 0.023466 0.802238
0.023474 0.023474 0.801158
0.072950 0.023115 0.803230
0.367729 0.021078 0.801419
0.705197 0.018754 0.797954
0.942689 0.017130 0.793969
0.986374 0.016853 0.790144
0.986405 0.016899 0.783531
0.986465 0.016958 0.774919
0.023429 0.034250 0.796776
0.023454 0.031243 0.796270
0.032840 0.024206 0.795812
0.306747 0.021555 0.793719
0.664484 0.019088 0.790778
0.930699 0.017265 0.786604
0.986648 0.016904 0.782490
0.986457 0.016950 0.776068
0.986519 0.017012 0.767111
0.022186 0.225087 0.784709
0.022235 0.218477 0.784222
0.022362 0.201517 0.782998
0.189340 0.173454 0.783474
0.587830 0.127977 0.780225
0.904615 0.074004 0.775450
0.986333 0.024639 0.770318
0.986553 0.017046 0.762228
0.986616 0.017109 0.753076
0.020296 0.517353 0.764158
0.020335 0.512378 0.763485
0.020431 0.499908 0.762137
0.036255 0.479444 0.761886
0.453163 0.446110 0.759609
0.845408 0.397179 0.754819
0.981333 0.330410 0.750078
0.985157 0.236398 0.743587
0.986070 0.114746 0.733909
0.018518 0.803020 0.734161
0.018542 0.799949 0.733711
0.018607 0.792003 0.732357
0.018725 0.777411 0.729914
0.231360 0.757586 0.729461
0.724343 0.724343 0.724343
0.966434 0.679239 0.718812
0.982714 0.618546 0.712557
0.983365 0.535011 0.702542
0.017689 0.962417 0.693871
0.017699 0.961695 0.693276
0.017722 0.959856 0.691692
0.017765 0.956302 0.689103
0.017834 0.950340 0.685103
0.511892 0.940046 0.682932
0.922098 0.924382 0.676085
0.981033 0.903379 0.669430
0.981345 0.869292 0.658770
0.017890 0.987397 0.640040
0.017894 0.987401 0.639392
0.017906 0.987413 0.637663
0.017925 0.987432 0.634944
0.017955 0.987642 0.630470
0.153693 0.986785 0.627743
0.786280 0.982263 0.620029
0.979701 0.980110 0.612279
0.980990 0.977668 0.601396
0.018393 0.987900 0.567209
0.018399 0.987905 0.566399
0.018410 0.987916 0.564777
0.018432 0.987938 0.561640
0.018463 0.987969 0.557112
0.018507 0.988014 0.550657
0.478348 0.984851 0.545634
0.949326 0.981644 0.535702
0.981487 0.981487 0.526088
0.022385 0.022385 0.958741
0.022385 0.022385 0.958741
0.055287 0.022155 0.958948
0.346233 0.020143 0.957289
0.691222 0.017760 0.954942
0.938141 0.016058 0.952735
0.985350 0.015737 0.951576
0.985257 0.015750 0.949822
0.985274 0.015767 0.947364
0.022389 0.022389 0.958140
0.022392 0.022392 0.957836
0.039811 0.022268 0.958248
0.322281 0.020314 0.956720
0.674866 0.017879 0.954189
0.933425 0.016096 0.951988
0.985444 0.015743 0.950742
0.985263 0.015756 0.949001
0.985280 0.015774 0.946453
0.022404 0.022404 0.955997
0.022404 0.022404 0.955997
0.022406 0.022406 0.955679
0.257540 0.020776 0.955017
0.632048 0.018189 0.952368
0.919827 0.016204 0.949948
0.985486 0.015757 0.948556
0.985278 0.015771 0.946767
0.985296 0.015789 0.944183
0.021467 0.160529 0.952648
0.021514 0.153900 0.952530
0.021630 0.137498 0.952275
0.136733 0.111618 0.952300
0.551341 0.073145 0.949518
0.889980 0.031891 0.946720
0.984649 0.015791 0.944508
0.985306 0.015799 0.942706
0.985326 0.015819 0.939869
0.019367 0.469889 0.945179
0.019403 0.464842 0.945069
0.019497 0.451766 0.944676
0.019658 0.429076 0.944241
0.412340 0.395898 0.942698
0.824072 0.343739 0.939721
0.978857 0.270573 0.937941
0.984272 0.170609 0.936488
0.985053 0.061226 0.933589
0.017338 0.772523 0.934292
0.017362 0.769210 0.934124
0.017425 0.760643 0.933672
0.017539 0.744941 0.932937
0.177889 0.723445 0.932507
0.694906 0.688108 0.928997
0.961120 0.639696 0.926317
0.981539 0.575458 0.924621
0.982172 0.487610 0.921455
0.016179 0.953976 0.919413
0.016187 0.953135 0.919194
0.016206 0.950940 0.918645
0.016242 0.946717 0.917649
0.016302 0.939639 0.916155
0.472644 0.928224 0.914235
0.910212 0.910212 0.910212
0.979498 0.885780 0.907775
0.979799 0.846269 0.903938
0.016106 0.985635 0.898233
0.016108 0.985667 0.897958
0.016112 0.985742 0.897265
0.016120 0.985839 0.896052
0.016133 0.985885 0.894116
0.102779 0.985154 0.893050
0.760188 0.980116 0.888055
0.976876 0.977197 0.884218
0.979081 0.973739 0.879695
0.016336 0.985842 0.865039
0.016339 0.985845 0.864629
0.016344 0.985851 0.863820
0.016356 0.985862 0.862189
0.016371 0.985877 0.860022
0.016395 0.985901 0.856522
0.437479 0.982991 0.853923
0.940731 0.979530 0.848274
0.979298 0.979298 0.842972
0.022156 0.022156 0.991912
0.022156 0.022156 0.991912
0.022244 0.022156 0.991911
0.288211 0.020318 0.990073
0.653082 0.017798 0.987552
0.926705 0.015908 0.985663
0.985257 0.015504 0.985260
0.985012 0.015506 0.985256
0.985012 0.015506 0.985231
0.022156 0.022156 0.991911
0.022156 0.022156 0.991909
0.022156 0.022156 0.991908
0.262321 0.020497 0.990253
0.635788 0.017918 0.987673
0.921171 0.015946 0.985702
0.985248 0.015504 0.985259
0.985012 0.015506 0.985250
0.985012 0.015506 0.985217
0.022156 0.022156 0.991895
0.022156 0.022156 0.991895
0.022156 0.022156 0.991891
0.193552 0.020972 0.990719
0.590400 0.018231 0.987979
0.905274 0.016056 0.985803
0.984980 0.015506 0.985246
0.985012 0.015506 0.985223
0.985013 0.015506 0.985170
0.021696 0.088897 0.991398
0.021731 0.083712 0.991430
0.021818 0.071148 0.991507
0.080761 0.051752 0.991241
0.504351 0.025347 0.988483
0.869231 0.016306 0.985990
0.983386 0.015517 0.985186
0.985013 0.015506 0.985129
0.985014 0.015507 0.985038
0.019483 0.409332 0.989048
0.019519 0.404103 0.989078
0.019613 0.390617 0.989153
0.019785 0.365680 0.989295
0.360349 0.329198 0.987237
0.795834 0.271014 0.984605
0.976509 0.191045 0.983868
0.984473 0.093833 0.984407
0.985012 0.015987 0.984745
0.017255 0.732234 0.986434
0.017281 0.728613 0.986448
0.017345 0.719263 0.986487
0.017463 0.702254 0.986551
0.114074 0.678590 0.986082
0.656988 0.640411 0.982590
0.954855 0.588340 0.980835
0.981535 0.519694 0.981025
0.982177 0.427018 0.981416
0.015806 0.942955 0.984065
0.015814 0.941916 0.984054
0.015833 0.939182 0.984029
0.015869 0.933989 0.983977
0.015929 0.925431 0.983911
0.422953 0.912269 0.981313
0.894744 0.890869 0.978134
0.979182 0.861343 0.977607
0.979511 0.814121 0.977576
0.015528 0.985277 0.981828
0.015528 0.985282 0.981794
0.015528 0.985281 0.981723
0.015530 0.985230 0.981585
0.015532 0.985023 0.981370
0.051780 0.984275 0.981054
0.726488 0.978621 0.976490
0.974595 0.974595 0.974595
0.978453 0.969627 0.974138
0.015557 0.985064 0.977789
0.015557 0.985064 0.977733
0.015558 0.985065 0.977615
0.015560 0.985066 0.977407
0.015562 0.985069 0.977073
0.015565 0.985072 0.976629
0.386364 0.982509 0.974236
0.930079 0.978755 0.970309
0.978425 0.978425 0.969417
0.022158 0.022158 0.991664
0.022158 0.022158 0.991664
0.022158 0.022158 0.991664
0.211558 0.020850 0.990356
0.602676 0.018148 0.987655
0.909780 0.016027 0.985533
0.985097 0.015507 0.985013
0.985014 0.015507 0.985014
0.985014 0.015507 0.985014
0.022158 0.022158 0.991664
0.022158 0.022158 0.991664
0.022158 0.022158 0.991664
0.184112 0.021039 0.990546
0.584277 0.018275 0.987782
0.903117 0.016073 0.985579
0.984927 0.015508 0.985014
0.985014 0.015507 0.985014
0.985014 0.015507 0.985014
0.022158 0.022158 0.991664
0.022158 0.022158 0.991664
0.022158 0.022158 0.991664
0.116764 0.021504 0.991011
0.535926 0.018609 0.988116
0.883888 0.016206 0.985712
0.984179 0.015513 0.985020
0.985014 0.015507 0.985014
0.985014 0.015507 0.985014
0.022111 0.028990 0.991617
0.022131 0.026104 0.991637
0.022158 0.022158 0.991664
0.031698 0.022092 0.991599
0.443579 0.019247 0.988754
0.840652 0.016504 0.986011
0.981480 0.015532 0.985038
0.985014 0.015507 0.985014
0.985014 0.015507 0.985014
0.020037 0.329244 0.989543
0.020078 0.323276 0.989585
0.020184 0.307985 0.989690
0.020379 0.279666 0.989886
0.289802 0.238188 0.988300
0.757629 0.174220 0.985491
0.972776 0.096303 0.984537
0.984932 0.027343 0.984932
0.985014 0.015507 0.985014
0.017627 0.678047 0.987134
0.017655 0.674053 0.987162
0.017726 0.663751 0.987233
0.017855 0.645057 0.987362
0.052438 0.618333 0.987307
0.607324 0.577444 0.983732
0.945670 0.520730 0.981773
0.982033 0.446986 0.982033
0.982713 0.348558 0.982713
0.015912 0.926464 0.985418
0.015921 0.925132 0.985427
0.015945 0.921645 0.985451
0.015990 0.915083 0.985497
0.016065 0.904264 0.985572
0.359491 0.888319 0.983294
0.872639 0.862016 0.979908
0.979633 0.825189 0.979420
0.979804 0.769784 0.979804
0.015507 0.985038 0.985014
0.015507 0.984998 0.985014
0.015508 0.984876 0.985015
0.015510 0.984591 0.985017
0.015514 0.983984 0.985021
0.015522 0.982812 0.985029
0.682693 0.976518 0.980432
0.971689 0.970862 0.978462
0.978464 0.963711 0.978464
0.015507 0.985014 0.985014
0.015507 0.985014 0.985014
0.015507 0.985014 0.985014
0.015507 0.985014 0.985014
0.015507 0.985014 0.985014
0.015507 0.985014 0.985014
0.319344 0.982915 0.982915
0.915749 0.978796 0.978796
0.978363 0.978363 0.978363
