public/space-rising/footage-review-2026-04-29/thumbs/_luts/mLUT_Utility_Panasonic_V-Log_To_Rec709_v4_by_MotionVFX.cube
TITLE "This LUT converts V-log video to standard Rec709 image profile. Normal exposure shooting conditions."
LUT_3D_SIZE 33
0.028809 0.028809 0.028809
0.028809 0.028809 0.028809
0.028809 0.028809 0.028809
0.035205 0.028764 0.028764
0.047072 0.028682 0.028682
0.066294 0.028550 0.028550
0.094632 0.028354 0.028354
0.135101 0.028074 0.028074
0.189987 0.027695 0.027695
0.255103 0.027246 0.027246
0.324696 0.026765 0.026765
0.395803 0.026274 0.026274
0.468346 0.025773 0.025773
0.544725 0.025245 0.025245
0.622416 0.024708 0.024708
0.699413 0.024177 0.024177
0.772847 0.023669 0.023669
0.840576 0.023202 0.023202
0.895652 0.022821 0.022821
0.935815 0.022544 0.022544
0.963258 0.022354 0.022354
0.980273 0.022237 0.022237
0.989040 0.022176 0.022176
0.991866 0.022157 0.022157
0.991664 0.022158 0.022158
0.991664 0.022158 0.022158
0.991664 0.022158 0.022158
0.991664 0.022158 0.022158
0.991664 0.022158 0.022158
0.991664 0.022158 0.022158
0.991664 0.022158 0.022158
0.991664 0.022158 0.022158
0.991664 0.022158 0.022158
0.028809 0.028809 0.028809
0.028809 0.028809 0.028809
0.028809 0.028809 0.028809
0.033320 0.028777 0.028777
0.045019 0.028697 0.028697
0.063295 0.028570 0.028570
0.091111 0.028378 0.028378
0.130939 0.028103 0.028103
0.185371 0.027727 0.027727
0.250628 0.027276 0.027276
0.320397 0.026795 0.026795
0.391965 0.026300 0.026300
0.464721 0.025798 0.025798
0.541436 0.025268 0.025268
0.619942 0.024725 0.024725
0.697112 0.024192 0.024192
0.770856 0.023683 0.023683
0.838579 0.023215 0.023215
0.894314 0.022830 0.022830
0.934932 0.022550 0.022550
0.962716 0.022358 0.022358
0.979982 0.022239 0.022239
0.988942 0.022177 0.022177
0.991852 0.022157 0.022157
0.991664 0.022158 0.022158
0.991664 0.022158 0.022158
0.991664 0.022158 0.022158
0.991664 0.022158 0.022158
0.991664 0.022158 0.022158
0.991664 0.022158 0.022158
0.991664 0.022158 0.022158
0.991664 0.022158 0.022158
0.991664 0.022158 0.022158
0.028809 0.028809 0.028809
0.028809 0.028809 0.028809
0.028809 0.028809 0.028809
0.031306 0.028791 0.028791
0.042553 0.028714 0.028714
0.060229 0.028592 0.028592
0.087539 0.028403 0.028403
0.126258 0.028135 0.028135
0.180753 0.027759 0.027759
0.245334 0.027313 0.027313
0.315476 0.026829 0.026829
0.388233 0.026326 0.026326
0.461213 0.025822 0.025822
0.538136 0.025291 0.025291
0.616378 0.024750 0.024750
0.693933 0.024214 0.024214
0.768104 0.023702 0.023702
0.836285 0.023231 0.023231
0.892718 0.022841 0.022841
0.933877 0.022557 0.022557
0.962069 0.022362 0.022362
0.979632 0.022241 0.022241
0.988798 0.022178 0.022178
0.991838 0.022157 0.022157
0.991664 0.022158 0.022158
0.991664 0.022158 0.022158
0.991664 0.022158 0.022158
0.991664 0.022158 0.022158
0.991664 0.022158 0.022158
0.991664 0.022158 0.022158
0.991664 0.022158 0.022158
0.991664 0.022158 0.022158
0.991664 0.022158 0.022158
0.028799 0.030233 0.028799
0.028802 0.029773 0.028802
0.028805 0.029360 0.028805
0.028809 0.028809 0.028809
0.039265 0.028736 0.028736
0.056120 0.028620 0.028620
0.082177 0.028440 0.028440
0.120543 0.028175 0.028175
0.173596 0.027809 0.027809
0.238703 0.027359 0.027359
0.309168 0.026872 0.026872
0.381912 0.026370 0.026370
0.455309 0.025863 0.025863
0.532455 0.025330 0.025330
0.611275 0.024785 0.024785
0.689376 0.024246 0.024246
0.764156 0.023729 0.023729
0.833341 0.023251 0.023251
0.890657 0.022856 0.022856
0.932349 0.022568 0.022568
0.961210 0.022368 0.022368
0.979122 0.022245 0.022245
0.988585 0.022179 0.022179
0.991810 0.022157 0.022157
0.991664 0.022158 0.022158
0.991664 0.022158 0.022158
0.991664 0.022158 0.022158
0.991664 0.022158 0.022158
0.991664 0.022158 0.022158
0.991664 0.022158 0.022158
0.991664 0.022158 0.022158
0.991664 0.022158 0.022158
0.991664 0.022158 0.022158
0.028745 0.038049 0.028745
0.028748 0.037541 0.028748
0.028753 0.036895 0.028753
0.028757 0.036311 0.028757
0.034962 0.035381 0.028720
0.050594 0.033962 0.028621
0.075416 0.032289 0.028460
0.112462 0.030277 0.028217
0.164487 0.027871 0.027871
0.229158 0.027425 0.027425
0.300686 0.026931 0.026931
0.374101 0.026424 0.026424
0.448247 0.025911 0.025911
0.525192 0.025380 0.025380
0.605043 0.024828 0.024828
0.683902 0.024284 0.024284
0.759405 0.023762 0.023762
0.829015 0.023281 0.023281
0.887554 0.022877 0.022877
0.930489 0.022580 0.022580
0.959962 0.022377 0.022377
0.978485 0.022249 0.022249
0.988295 0.022181 0.022181
0.991767 0.022157 0.022157
0.991664 0.022158 0.022158
0.991664 0.022158 0.022158
0.991664 0.022158 0.022158
0.991664 0.022158 0.022158
0.991664 0.022158 0.022158
0.991664 0.022158 0.022158
0.991664 0.022158 0.022158
0.991664 0.022158 0.022158
0.991664 0.022158 0.022158
0.028665 0.049560 0.028665
0.028669 0.048952 0.028669
0.028675 0.048177 0.028675
0.028680 0.047385 0.028680
0.029736 0.046332 0.028680
0.044145 0.044799 0.028591
0.067174 0.042891 0.028444
0.102118 0.040543 0.028217
0.152169 0.037850 0.027888
0.217431 0.034771 0.027455
0.289870 0.031322 0.026975
0.364676 0.027603 0.026481
0.439567 0.025971 0.025971
0.516896 0.025437 0.025437
0.596690 0.024886 0.024886
0.675996 0.024338 0.024338
0.752533 0.023810 0.023810
0.823619 0.023319 0.023319
0.883438 0.022905 0.022905
0.927757 0.022599 0.022599
0.958377 0.022388 0.022388
0.977614 0.022255 0.022255
0.987913 0.022184 0.022184
0.991703 0.022158 0.022158
0.991664 0.022158 0.022158
0.991664 0.022158 0.022158
0.991664 0.022158 0.022158
0.991664 0.022158 0.022158
0.991664 0.022158 0.022158
0.991664 0.022158 0.022158
0.991664 0.022158 0.022158
0.991664 0.022158 0.022158
0.991664 0.022158 0.022158
0.028548 0.066504 0.028548
0.028553 0.065771 0.028553
0.028558 0.065043 0.028558
0.028566 0.063908 0.028566
0.028575 0.062628 0.028575
0.036892 0.061035 0.028528
0.057538 0.058712 0.028401
0.090287 0.056035 0.028192
0.138018 0.052740 0.027883
0.202512 0.049057 0.027460
0.275389 0.044920 0.026981
0.352133 0.040602 0.026478
0.427894 0.035960 0.025983
0.506733 0.031120 0.025468
0.587263 0.026149 0.024943
0.667590 0.024396 0.024396
0.744827 0.023863 0.023863
0.816732 0.023366 0.023366
0.878707 0.022938 0.022938
0.924429 0.022622 0.022622
0.956312 0.022402 0.022402
0.976407 0.022263 0.022263
0.987407 0.022187 0.022187
0.991604 0.022158 0.022158
0.991664 0.022158 0.022158
0.991664 0.022158 0.022158
0.991664 0.022158 0.022158
0.991664 0.022158 0.022158
0.991664 0.022158 0.022158
0.991664 0.022158 0.022158
0.991664 0.022158 0.022158
0.991664 0.022158 0.022158
0.991664 0.022158 0.022158
0.028380 0.090862 0.028380
0.028386 0.089994 0.028386
0.028393 0.089006 0.028393
0.028401 0.087780 0.028401
0.028414 0.085956 0.028414
0.028961 0.084221 0.028422
0.047156 0.081715 0.028313
0.076769 0.078621 0.028129
0.121465 0.074870 0.027844
0.183931 0.070387 0.027440
0.258008 0.065392 0.026960
0.335973 0.060003 0.026455
0.414128 0.054323 0.025951
0.493267 0.048249 0.025443
0.575435 0.042071 0.024914
0.657114 0.035837 0.024390
0.735792 0.029656 0.023885
0.809273 0.023418 0.023418
0.872802 0.022979 0.022979
0.920257 0.022651 0.022651
0.953709 0.022420 0.022420
0.975013 0.022273 0.022273
0.986748 0.022192 0.022192
0.991456 0.022159 0.022159
0.991664 0.022158 0.022158
0.991664 0.022158 0.022158
0.991664 0.022158 0.022158
0.991664 0.022158 0.022158
0.991664 0.022158 0.022158
0.991664 0.022158 0.022158
0.991664 0.022158 0.022158
0.991664 0.022158 0.022158
0.991664 0.022158 0.022158
0.028149 0.124370 0.028149
0.028155 0.123362 0.028155
0.028162 0.122357 0.028162
0.028173 0.120786 0.028173
0.028188 0.118658 0.028188
0.028205 0.116238 0.028205
0.036580 0.113870 0.028163
0.062231 0.110144 0.028010
0.103050 0.105875 0.027756
0.162294 0.100838 0.027379
0.236992 0.094982 0.026900
0.316755 0.088573 0.026390
0.396927 0.081591 0.025881
0.477366 0.074247 0.025373
0.560792 0.066500 0.024846
0.644136 0.058495 0.024322
0.724568 0.050299 0.023820
0.799894 0.042291 0.023352
0.866030 0.034403 0.022947
0.916077 0.026970 0.022650
0.950880 0.022440 0.022440
0.973141 0.022286 0.022286
0.985910 0.022198 0.022198
0.991243 0.022161 0.022161
0.991664 0.022158 0.022158
0.991664 0.022158 0.022158
0.991664 0.022158 0.022158
0.991664 0.022158 0.022158
0.991664 0.022158 0.022158
0.991664 0.022158 0.022158
0.991664 0.022158 0.022158
0.991664 0.022158 0.022158
0.991664 0.022158 0.022158
0.027842 0.168725 0.027842
0.027850 0.167576 0.027850
0.027858 0.166431 0.027858
0.027870 0.164637 0.027870
0.027886 0.162366 0.027886
0.027908 0.159144 0.027908
0.027927 0.156461 0.027927
0.047544 0.152533 0.027818
0.083489 0.147828 0.027600
0.138189 0.142184 0.027259
0.212081 0.135674 0.026791
0.293683 0.128286 0.026274
0.376858 0.120136 0.025753
0.458494 0.111463 0.025245
0.542930 0.102042 0.024723
0.628056 0.092271 0.024199
0.710811 0.082149 0.023694
0.788072 0.071723 0.023229
0.857260 0.061311 0.022820
0.910259 0.051065 0.022523
0.947238 0.041237 0.022334
0.971241 0.032054 0.022231
0.984986 0.023598 0.022194
0.990949 0.022163 0.022163
0.991752 0.022157 0.022157
0.991664 0.022158 0.022158
0.991664 0.022158 0.022158
0.991664 0.022158 0.022158
0.991664 0.022158 0.022158
0.991664 0.022158 0.022158
0.991664 0.022158 0.022158
0.991664 0.022158 0.022158
0.991664 0.022158 0.022158
0.027471 0.222493 0.027471
0.027479 0.221350 0.027479
0.027487 0.220208 0.027487
0.027499 0.218411 0.027499
0.027515 0.216121 0.027515
0.027537 0.212846 0.027537
0.027562 0.209239 0.027562
0.033631 0.206037 0.027542
0.063634 0.201252 0.027367
0.112487 0.195466 0.027067
0.183278 0.188598 0.026623
0.266526 0.180577 0.026100
0.352382 0.171492 0.025566
0.436576 0.161587 0.025049
0.522683 0.150860 0.024525
0.609497 0.139268 0.024001
0.694507 0.127248 0.023494
0.774307 0.114632 0.023027
0.846279 0.101729 0.022616
0.902735 0.088490 0.022315
0.942552 0.075527 0.022128
0.968479 0.062794 0.022037
0.983599 0.050467 0.022017
0.990490 0.038984 0.022049
0.991791 0.028612 0.022112
0.991664 0.022158 0.022158
0.991664 0.022158 0.022158
0.991664 0.022158 0.022158
0.991664 0.022158 0.022158
0.991664 0.022158 0.022158
0.991664 0.022158 0.022158
0.991664 0.022158 0.022158
0.991664 0.022158 0.022158
0.027064 0.281428 0.027064
0.027071 0.280338 0.027071
0.027080 0.279090 0.027080
0.027091 0.277529 0.027091
0.027107 0.275183 0.027107
0.027127 0.272202 0.027127
0.027152 0.268583 0.027152
0.027179 0.264710 0.027179
0.044744 0.260981 0.027083
0.086550 0.255663 0.026829
0.150864 0.249189 0.026427
0.234975 0.241322 0.025897
0.323874 0.232502 0.025340
0.411452 0.222777 0.024798
0.498748 0.211968 0.024266
0.587889 0.200062 0.023729
0.675402 0.186919 0.023212
0.757967 0.172743 0.022736
0.833026 0.157634 0.022319
0.893673 0.141915 0.022007
0.936634 0.125851 0.021819
0.964971 0.109760 0.021734
0.981720 0.093692 0.021730
0.989682 0.077778 0.021785
0.991619 0.062477 0.021878
0.991486 0.048060 0.021979
0.991575 0.035096 0.022069
0.991655 0.023577 0.022148
0.991664 0.022158 0.022158
0.991664 0.022158 0.022158
0.991664 0.022158 0.022158
0.991664 0.022158 0.022158
0.991664 0.022158 0.022158
0.026638 0.343082 0.026638
0.026645 0.342073 0.026645
0.026652 0.341063 0.026652
0.026663 0.339472 0.026663
0.026678 0.337297 0.026678
0.026697 0.334532 0.026697
0.026719 0.331317 0.026719
0.026747 0.327204 0.026747
0.028061 0.323499 0.026764
0.061217 0.318993 0.026565
0.117566 0.313175 0.026213
0.198850 0.306087 0.025697
0.290759 0.298017 0.025114
0.382539 0.288734 0.024540
0.471772 0.278548 0.023991
0.563109 0.267255 0.023434
0.653354 0.254853 0.022892
0.738978 0.241181 0.022392
0.817160 0.226236 0.021952
0.882605 0.210374 0.021607
0.929429 0.193147 0.021401
0.960552 0.174898 0.021312
0.979242 0.155410 0.021317
0.988548 0.135598 0.021391
0.991259 0.115843 0.021509
0.991152 0.096281 0.021646
0.991283 0.077420 0.021776
0.991407 0.059416 0.021901
0.991518 0.043301 0.022012
0.991616 0.029211 0.022109
0.991664 0.022158 0.022158
0.991664 0.022158 0.022158
0.991664 0.022158 0.022158
0.026207 0.405473 0.026207
0.026213 0.404566 0.026213
0.026220 0.403527 0.026220
0.026229 0.402226 0.026229
0.026244 0.400138 0.026244
0.026261 0.397646 0.026261
0.026281 0.394747 0.026281
0.026306 0.391167 0.026306
0.026337 0.386626 0.026337
0.038833 0.383474 0.026272
0.084848 0.378412 0.025987
0.158405 0.372162 0.025519
0.252298 0.364890 0.024917
0.348609 0.356457 0.024305
0.441058 0.347318 0.023726
0.534767 0.336846 0.023147
0.627865 0.325449 0.022579
0.716979 0.312821 0.022047
0.798882 0.299092 0.021573
0.869307 0.284095 0.021187
0.920570 0.267836 0.020944
0.955027 0.250263 0.020826
0.976153 0.231490 0.020810
0.987009 0.211159 0.020876
0.990666 0.189613 0.021000
0.990668 0.166415 0.021161
0.990834 0.142386 0.021327
0.991000 0.118397 0.021493
0.991159 0.095324 0.021653
0.991309 0.073638 0.021802
0.991447 0.053706 0.021940
0.991566 0.036410 0.022059
0.991664 0.022158 0.022158
0.025769 0.468845 0.025769
0.025773 0.468221 0.025773
0.025779 0.467347 0.025779
0.025790 0.465847 0.025790
0.025803 0.463970 0.025803
0.025818 0.461715 0.025818
0.025839 0.458703 0.025839
0.025862 0.455435 0.025862
0.025890 0.451277 0.025890
0.025920 0.447053 0.025920
0.054960 0.443206 0.025744
0.117367 0.437961 0.025347
0.208551 0.431140 0.024760
0.309321 0.423740 0.024111
0.406688 0.415235 0.023493
0.502688 0.406145 0.022888
0.598802 0.395875 0.022291
0.691526 0.384464 0.021726
0.777489 0.372296 0.021212
0.853074 0.358656 0.020781
0.910012 0.344099 0.020487
0.948394 0.328132 0.020331
0.972266 0.310804 0.020285
0.985054 0.292186 0.020326
0.989872 0.271892 0.020433
0.990091 0.250007 0.020584
0.990255 0.226242 0.020748
0.990434 0.200310 0.020927
0.990623 0.172950 0.021116
0.990819 0.144631 0.021312
0.991008 0.117209 0.021501
0.991189 0.091028 0.021682
0.991355 0.066912 0.021849
0.025308 0.535536 0.025308
0.025314 0.534707 0.025314
0.025320 0.533878 0.025320
0.025329 0.532573 0.025329
0.025341 0.530792 0.025341
0.025356 0.528651 0.025356
0.025376 0.525789 0.025376
0.025398 0.522561 0.025398
0.025425 0.518723 0.025425
0.025456 0.514148 0.025456
0.030256 0.510695 0.025447
0.078493 0.505889 0.025145
0.160001 0.499756 0.024621
0.263797 0.492649 0.023948
0.367691 0.484787 0.023280
0.466444 0.475852 0.022655
0.565783 0.466055 0.022033
0.662705 0.455543 0.021432
0.752991 0.443954 0.020884
0.833643 0.431686 0.020409
0.897072 0.418396 0.020060
0.940253 0.404228 0.019858
0.967543 0.389139 0.019773
0.982629 0.372705 0.019783
0.988863 0.354529 0.019866
0.989505 0.334774 0.019999
0.989652 0.313472 0.020146
0.989817 0.289571 0.020311
0.989994 0.264018 0.020487
0.990186 0.236158 0.020680
0.990390 0.206697 0.020883
0.990607 0.175318 0.021100
0.990831 0.142860 0.021324
0.024839 0.603504 0.024839
0.024844 0.602844 0.024844
0.024850 0.601963 0.024850
0.024857 0.600861 0.024857
0.024869 0.599093 0.024869
0.024884 0.596990 0.024884
0.024902 0.594437 0.024902
0.024923 0.591318 0.024923
0.024948 0.587740 0.024948
0.024977 0.583584 0.024977
0.025009 0.578843 0.025009
0.045015 0.575521 0.024893
0.111249 0.570330 0.024469
0.212061 0.563736 0.023813
0.321914 0.556305 0.023101
0.426043 0.548069 0.022434
0.528521 0.538889 0.021785
0.629669 0.529000 0.021150
0.724673 0.518061 0.020566
0.810558 0.506442 0.020049
0.881329 0.493799 0.019645
0.930324 0.480405 0.019397
0.961711 0.465961 0.019279
0.979567 0.450418 0.019263
0.987588 0.434120 0.019321
0.989097 0.416521 0.019433
0.989070 0.397827 0.019563
0.989212 0.377168 0.019706
0.989369 0.354458 0.019863
0.989540 0.329689 0.020034
0.989726 0.302767 0.020220
0.989928 0.273623 0.020421
0.990143 0.242416 0.020637
0.024371 0.671205 0.024371
0.024376 0.670503 0.024376
0.024381 0.669800 0.024381
0.024389 0.668695 0.024389
0.024399 0.667185 0.024399
0.024412 0.665266 0.024412
0.024429 0.662937 0.024429
0.024448 0.660090 0.024448
0.024471 0.656719 0.024471
0.024498 0.652920 0.024498
0.024528 0.648581 0.024528
0.024556 0.644532 0.024556
0.067350 0.640607 0.024285
0.154834 0.634879 0.023717
0.268955 0.628249 0.022969
0.380973 0.620591 0.022243
0.486801 0.612282 0.021565
0.592057 0.603066 0.020897
0.692421 0.593187 0.020268
0.783737 0.582206 0.019709
0.862070 0.570580 0.019245
0.918063 0.558003 0.018943
0.954438 0.544661 0.018783
0.975711 0.530138 0.018736
0.985895 0.514852 0.018771
0.988623 0.498264 0.018868
0.988497 0.480683 0.018991
0.988630 0.461485 0.019123
0.988775 0.440491 0.019268
0.988926 0.418615 0.019419
0.989087 0.395290 0.019581
0.989262 0.369985 0.019755
0.989453 0.342338 0.019946
0.023917 0.736971 0.023917
0.023921 0.736346 0.023921
0.023927 0.735540 0.023927
0.023934 0.734554 0.023934
0.023943 0.733296 0.023943
0.023954 0.731675 0.023954
0.023969 0.729504 0.023969
0.023985 0.727143 0.023985
0.024006 0.724039 0.024006
0.024029 0.720732 0.024029
0.024057 0.716663 0.024057
0.024088 0.712283 0.024088
0.032646 0.708971 0.024051
0.099439 0.704427 0.023618
0.208752 0.698655 0.022898
0.328533 0.691791 0.022113
0.440119 0.684217 0.021389
0.549749 0.676007 0.020684
0.655450 0.666969 0.020012
0.752996 0.657116 0.019402
0.838386 0.646448 0.018882
0.902900 0.634999 0.018513
0.945341 0.622852 0.018302
0.970758 0.609723 0.018217
0.983633 0.595648 0.018225
0.987929 0.580449 0.018301
0.987921 0.564166 0.018414
0.988043 0.546506 0.018536
0.988176 0.527164 0.018670
0.988319 0.506491 0.018812
0.988470 0.484558 0.018964
0.988633 0.461104 0.019126
0.988804 0.436237 0.019298
0.023489 0.798990 0.023489
0.023491 0.798602 0.023491
0.023496 0.797902 0.023496
0.023502 0.797044 0.023502
0.023510 0.795872 0.023510
0.023520 0.794461 0.023520
0.023533 0.792650 0.023533
0.023548 0.790434 0.023548
0.023565 0.787887 0.023565
0.023586 0.784922 0.023586
0.023610 0.781368 0.023610
0.023637 0.777538 0.023637
0.023668 0.773095 0.023668
0.052500 0.770485 0.023485
0.142850 0.765642 0.022891
0.267452 0.759755 0.022065
0.388622 0.753159 0.021268
0.502110 0.745659 0.020531
0.613410 0.737743 0.019812
0.717354 0.728998 0.019150
0.809847 0.719516 0.018572
0.884149 0.709313 0.018126
0.933880 0.698499 0.017856
0.964407 0.686907 0.017724
0.980628 0.674362 0.017698
0.986921 0.660788 0.017749
0.987354 0.646205 0.017847
0.987463 0.630453 0.017956
0.987584 0.612924 0.018077
0.987715 0.593977 0.018208
0.987853 0.573893 0.018347
0.988003 0.552283 0.018496
0.988162 0.529211 0.018656
0.023098 0.855601 0.023098
0.023101 0.855098 0.023101
0.023104 0.854656 0.023104
0.023109 0.854023 0.023109
0.023115 0.853069 0.023115
0.023123 0.851917 0.023123
0.023134 0.850369 0.023134
0.023146 0.848611 0.023146
0.023161 0.846437 0.023161
0.023178 0.843968 0.023178
0.023197 0.841191 0.023197
0.023222 0.837678 0.023222
0.023247 0.833974 0.023247
0.023270 0.830625 0.023270
0.082327 0.827490 0.022881
0.197991 0.822657 0.022110
0.328829 0.816988 0.021240
0.449086 0.810751 0.020447
0.565992 0.803762 0.019682
0.676642 0.796107 0.018966
0.776425 0.787957 0.018329
0.860761 0.779084 0.017804
0.919585 0.769686 0.017460
0.956252 0.759538 0.017275
0.976617 0.748642 0.017210
0.985451 0.736921 0.017230
0.986934 0.724118 0.017308
0.986911 0.710409 0.017404
0.987017 0.695023 0.017510
0.987132 0.678346 0.017625
0.987255 0.660495 0.017749
0.987389 0.641182 0.017882
0.987532 0.620441 0.018025
0.022783 0.901178 0.022783
0.022785 0.900860 0.022785
0.022787 0.900541 0.022787
0.022791 0.900038 0.022791
0.022796 0.899349 0.022796
0.022802 0.898470 0.022802
0.022809 0.897444 0.022809
0.022818 0.896126 0.022818
0.022829 0.894554 0.022829
0.022841 0.892767 0.022841
0.022856 0.890657 0.022856
0.022871 0.888362 0.022871
0.022891 0.885563 0.022891
0.022912 0.882441 0.022912
0.035510 0.880280 0.022840
0.124301 0.877093 0.022244
0.259023 0.872684 0.021338
0.390567 0.867765 0.020457
0.512380 0.862237 0.019648
0.630254 0.856100 0.018871
0.737961 0.849548 0.018168
0.831384 0.842186 0.017569
0.901406 0.834339 0.017137
0.945788 0.825864 0.016887
0.971297 0.816688 0.016773
0.983337 0.806730 0.016759
0.986565 0.795984 0.016811
0.986400 0.784282 0.016894
0.986490 0.771360 0.016983
0.986589 0.756947 0.017083
0.986696 0.741440 0.017190
0.986811 0.724776 0.017305
0.986937 0.706609 0.017430
0.022545 0.935564 0.022545
0.022546 0.935406 0.022546
0.022548 0.935122 0.022548
0.022551 0.934773 0.022551
0.022554 0.934294 0.022554
0.022558 0.933748 0.022558
0.022564 0.932938 0.022564
0.022570 0.932053 0.022570
0.022577 0.930992 0.022577
0.022586 0.929713 0.022586
0.022596 0.928242 0.022596
0.022607 0.926603 0.022607
0.022621 0.924682 0.022621
0.022635 0.922570 0.022635
0.022652 0.920105 0.022652
0.061420 0.918547 0.022393
0.179482 0.915530 0.021593
0.322648 0.911790 0.020623
0.452755 0.907711 0.019747
0.577263 0.903247 0.018912
0.693444 0.898270 0.018138
0.795940 0.892959 0.017463
0.878370 0.887231 0.016929
0.932296 0.880992 0.016597
0.964190 0.874339 0.016422
0.980318 0.866953 0.016361
0.985867 0.858822 0.016379
0.985948 0.849822 0.016441
0.986019 0.839513 0.016512
0.986100 0.827720 0.016594
0.986189 0.814880 0.016682
0.986286 0.800848 0.016779
0.986392 0.785539 0.016885
0.022375 0.960251 0.022375
0.022376 0.960107 0.022376
0.022377 0.959962 0.022377
0.022378 0.959733 0.022378
0.022380 0.959439 0.022380
0.022383 0.959017 0.022383
0.022387 0.958527 0.022387
0.022391 0.957945 0.022391
0.022396 0.957224 0.022396
0.022401 0.956402 0.022401
0.022408 0.955429 0.022408
0.022416 0.954320 0.022416
0.022424 0.953116 0.022424
0.022435 0.951614 0.022435
0.022446 0.950019 0.022446
0.022456 0.948543 0.022456
0.099989 0.946951 0.021928
0.242828 0.944206 0.020953
0.386632 0.941144 0.019974
0.517528 0.937834 0.019087
0.642184 0.934255 0.018245
0.754298 0.930340 0.017492
0.848908 0.926218 0.016863
0.914857 0.921870 0.016434
0.954747 0.917165 0.016190
0.976056 0.912070 0.016077
0.984663 0.906570 0.016055
0.985598 0.900365 0.016092
0.985646 0.893443 0.016140
0.985703 0.885235 0.016196
0.985766 0.876144 0.016259
0.985836 0.865956 0.016330
0.985916 0.854452 0.016409
0.022261 0.976731 0.022261
0.022262 0.976656 0.022262
0.022262 0.976557 0.022262
0.022263 0.976420 0.022263
0.022265 0.976219 0.022265
0.022266 0.975990 0.022266
0.022268 0.975682 0.022268
0.022271 0.975343 0.022271
0.022274 0.974920 0.022274
0.022277 0.974408 0.022277
0.022281 0.973830 0.022281
0.022286 0.973139 0.022286
0.022291 0.972372 0.022291
0.022297 0.971492 0.022297
0.022304 0.970476 0.022304
0.022312 0.969344 0.022312
0.039101 0.968492 0.022201
0.153219 0.966790 0.021419
0.309431 0.964458 0.020349
0.450605 0.962046 0.019384
0.583730 0.959421 0.018476
0.705919 0.956588 0.017646
0.811503 0.953709 0.016932
0.892159 0.950634 0.016392
0.942213 0.947475 0.016066
0.970074 0.944147 0.015895
0.982649 0.940460 0.015834
0.985590 0.936429 0.015841
0.985381 0.931875 0.015874
0.985417 0.926557 0.015911
0.985459 0.920486 0.015953
0.985507 0.913642 0.016000
0.985560 0.905973 0.016053
0.022194 0.986494 0.022194
0.022194 0.986450 0.022194
0.022194 0.986399 0.022194
0.022195 0.986323 0.022195
0.022195 0.986246 0.022195
0.022196 0.986116 0.022196
0.022197 0.985957 0.022197
0.022199 0.985782 0.022199
0.022200 0.985562 0.022200
0.022202 0.985295 0.022202
0.022204 0.984991 0.022204
0.022207 0.984625 0.022207
0.022209 0.984216 0.022209
0.022213 0.983742 0.022213
0.022216 0.983191 0.022216
0.022221 0.982572 0.022221
0.022226 0.981868 0.022226
0.072042 0.981178 0.021884
0.218671 0.979537 0.020875
0.376369 0.977650 0.019792
0.517231 0.975741 0.018825
0.649735 0.973726 0.017918
0.766755 0.971666 0.017118
0.862420 0.969548 0.016467
0.925369 0.967468 0.016044
0.961648 0.965364 0.015806
0.979407 0.963107 0.015699
0.985210 0.960614 0.015676
0.985201 0.957875 0.015695
0.985223 0.954655 0.015717
0.985250 0.950874 0.015743
0.985279 0.946550 0.015773
0.985313 0.941715 0.015806
0.022162 0.991032 0.022162
0.022162 0.991018 0.022162
0.022162 0.991003 0.022162
0.022163 0.990977 0.022163
0.022163 0.990946 0.022163
0.022163 0.990906 0.022163
0.022164 0.990846 0.022164
0.022164 0.990786 0.022164
0.022165 0.990707 0.022165
0.022165 0.990607 0.022165
0.022166 0.990493 0.022166
0.022167 0.990357 0.022167
0.022168 0.990197 0.022168
0.022169 0.990005 0.022169
0.022171 0.989780 0.022171
0.022173 0.989521 0.022173
0.022175 0.989219 0.022175
0.022177 0.988934 0.022177
0.120403 0.988065 0.021500
0.288540 0.986562 0.020341
0.442640 0.985085 0.019279
0.584962 0.983601 0.018300
0.714076 0.982100 0.017412
0.823472 0.980656 0.016661
0.902869 0.979285 0.016118
0.949849 0.978013 0.015800
