public/space-rising/footage-review-2026-04-29/thumbs/_luts/mLUT_Utility_Panasonic_V-Log_To_Rec709_v4_by_MotionVFX.cube
TITLE "This LUT converts V-log video to standard Rec709 image profile. Normal exposure shooting conditions."
LUT_3D_SIZE 5
0.028809 0.028809 0.028809
0.189987 0.027695 0.027695
0.772847 0.023669 0.023669
0.991664 0.022158 0.022158
0.991664 0.022158 0.022158
0.028149 0.124370 0.028149
0.103050 0.105875 0.027756
0.724568 0.050299 0.023820
0.991664 0.022158 0.022158
0.991664 0.022158 0.022158
0.024839 0.603504 0.024839
0.024948 0.587740 0.024948
0.528521 0.538889 0.021785
0.987588 0.434120 0.019321
0.990143 0.242416 0.020637
0.022261 0.976731 0.022261
0.022274 0.974920 0.022274
0.039101 0.968492 0.022201
0.942213 0.947475 0.016066
0.985560 0.905973 0.016053
0.022158 0.991664 0.022158
0.022158 0.991664 0.022158
0.022158 0.991664 0.022158
0.552657 0.988000 0.018494
0.985014 0.985014 0.015507
0.028251 0.028251 0.109501
0.177025 0.027227 0.107958
0.767796 0.023195 0.096931
0.991259 0.021752 0.080890
0.991416 0.021909 0.058121
0.027795 0.109690 0.093635
0.092103 0.092103 0.092103
0.718612 0.040351 0.081275
0.991368 0.021860 0.065228
0.991506 0.021999 0.045151
0.024762 0.593260 0.046166
0.024886 0.577210 0.044389
0.519444 0.527406 0.036776
0.987445 0.420820 0.024998
0.990271 0.223854 0.020765
0.022271 0.975291 0.022271
0.022284 0.973353 0.022284
0.031611 0.966544 0.022267
0.939703 0.944719 0.016103
0.985593 0.901144 0.016087
0.022158 0.991664 0.022158
0.022158 0.991664 0.022158
0.022158 0.991664 0.022158
0.541646 0.988076 0.018570
0.985014 0.985014 0.015507
0.025183 0.025183 0.553717
0.128835 0.024462 0.553765
0.742738 0.020239 0.546950
0.988126 0.018619 0.534486
0.988286 0.018780 0.511259
0.025004 0.063433 0.541215
0.055937 0.049490 0.540316
0.689082 0.020719 0.531675
0.988390 0.018727 0.518721
0.988396 0.018889 0.495377
0.021944 0.552898 0.491639
0.022079 0.536154 0.489042
0.484194 0.484194 0.484194
0.983908 0.373863 0.469959
0.987728 0.164207 0.446096
0.019741 0.968882 0.392373
0.019778 0.966636 0.389389
0.019898 0.958356 0.380334
0.931073 0.934738 0.365931
0.983450 0.885467 0.339948
0.020864 0.990370 0.209548
0.020885 0.990392 0.206370
0.020965 0.990471 0.194928
0.508585 0.987216 0.175255
0.984126 0.984126 0.143988
0.022385 0.022385 0.958741
0.055287 0.022155 0.958948
0.691222 0.017760 0.954942
0.985350 0.015737 0.951576
0.985274 0.015767 0.947364
0.022404 0.022404 0.955997
0.022406 0.022406 0.955679
0.632048 0.018189 0.952368
0.985486 0.015757 0.948556
0.985296 0.015789 0.944183
0.019367 0.469889 0.945179
0.019497 0.451766 0.944676
0.412340 0.395898 0.942698
0.978857 0.270573 0.937941
0.985053 0.061226 0.933589
0.016179 0.953976 0.919413
0.016206 0.950940 0.918645
0.016302 0.939639 0.916155
0.910212 0.910212 0.910212
0.979799 0.846269 0.903938
0.016336 0.985842 0.865039
0.016344 0.985851 0.863820
0.016371 0.985877 0.860022
0.437479 0.982991 0.853923
0.979298 0.979298 0.842972
0.022158 0.022158 0.991664
0.022158 0.022158 0.991664
0.602676 0.018148 0.987655
0.985097 0.015507 0.985013
0.985014 0.015507 0.985014
0.022158 0.022158 0.991664
0.022158 0.022158 0.991664
0.535926 0.018609 0.988116
0.984179 0.015513 0.985020
0.985014 0.015507 0.985014
0.020037 0.329244 0.989543
0.020184 0.307985 0.989690
0.289802 0.238188 0.988300
0.972776 0.096303 0.984537
0.985014 0.015507 0.985014
0.015912 0.926464 0.985418
0.015945 0.921645 0.985451
0.016065 0.904264 0.985572
0.872639 0.862016 0.979908
0.979804 0.769784 0.979804
0.015507 0.985014 0.985014
0.015507 0.985014 0.985014
0.015507 0.985014 0.985014
0.319344 0.982915 0.982915
0.978363 0.978363 0.978363
