public/space-rising/footage-review-2026-04-29/thumbs/_luts/Neutral_4D8K_65x.cube
TITLE "Generated by Resolve"
LUT_3D_SIZE 5
0.00772107 0.00772107 0.00772107
0.175448 0.0176242 0.00773632
0.621653 0.033814 0.0596323
0.946685 0 0.110796
0.946899 0 0.127535
0.0192721 0.168933 0.0401312
0.162844 0.1682 0.025391
0.65124 0.126131 0.0418708
0.976974 0.0348363 0.101045
0.978103 0.0361181 0.101076
0.0871138 0.670848 0.186847
0.135592 0.662806 0.0490883
0.651392 0.616266 0.0397803
1 0.602426 0.0432288
1 0.595438 0.0465248
0.18407 0.979583 0.354162
0.239551 0.976471 0.268925
0.585702 0.956603 0.185321
0.996231 0.941756 0.28246
1 0.944366 0.282017
0.137224 0.982361 0.395392
0.206439 0.978378 0.325826
0.522637 0.961791 0.163256
0.984161 0.937407 0.291127
1 0.944366 0.282017
0.00663767 0.00679026 0.112596
0.175586 0.0128328 0.139651
0.630701 0.0222324 0.23621
0.942611 0 0.228824
0.943084 0.0056611 0.27953
0.0214237 0.145693 0.147066
0.150729 0.150729 0.150729
0.713649 0.0769818 0.116808
0.946822 0 0.118044
0.946899 0 0.130571
0 0.664408 0.290547
0.0604868 0.65626 0.211734
0.641886 0.6065 0.0635233
1 0.582895 0.0542916
1 0.573144 0.0609293
0.0823224 0.986481 0.423896
0.167575 0.980423 0.371435
0.541512 0.960235 0.171313
0.993713 0.94081 0.28336
1 0.944366 0.282017
0.0268254 0.990784 0.45449
0.114763 0.984024 0.408469
0.47216 0.964401 0.133104
0.979004 0.935683 0.296345
1 0.944366 0.282017
0.0513313 0 0.386999
0.197604 0.00610361 0.442023
0.633951 0.0120394 0.542153
0.941634 0.00489815 0.588968
0.940597 0.00366217 0.613581
0 0.0517281 0.455283
0.0808576 0.00271611 0.47602
0.674296 0.027985 0.576715
0.942184 0.00547799 0.57734
0.941878 0.00515755 0.583795
0.00814832 0.611292 0.624704
0.00852979 0.606485 0.620478
0.584741 0.584741 0.584741
0.985122 0.564828 0.543526
0.985504 0.549508 0.532357
0.0159304 0.994003 0.678981
0.014786 0.994354 0.657404
0.0556191 0.990066 0.466911
0.974701 0.939971 0.542092
1 0.943404 0.471382
0.0170748 0.993515 0.699458
0.0157931 0.994034 0.676738
0.0245518 0.99147 0.473106
0.941238 0.936584 0.501884
1 0.944579 0.310979
0.0988937 0.113283 0.817914
0.242618 0.129915 0.856794
0.656199 0.177096 0.945327
0.984924 0.157504 0.97789
0.984924 0.157504 0.97789
0 0.172152 0.86157
0.0793011 0.185245 0.912764
0.663096 0.191943 0.955047
0.985214 0.162203 0.978241
0.98526 0.162997 0.978286
0 0.538109 0.95758
0 0.524544 0.961547
0.452049 0.479362 0.935653
0.98703 0.41474 0.962982
0.988754 0.397086 0.958556
0.0663157 0.958999 0.976211
0.0652323 0.956863 0.974655
0.0573892 0.940642 0.962432
0.937438 0.937438 0.937438
0.946258 0.906981 0.904067
0.0708324 0.981445 0.983063
0.0679179 0.981781 0.980056
0.0537118 0.984283 0.946349
0.890654 0.945159 0.907332
0.960601 0.956207 0.924437
0.121614 0.186297 0.917327
0.271595 0.182071 0.921874
0.677272 0.191913 0.956664
0.984924 0.157504 0.97789
0.984924 0.157504 0.97789
0 0.173968 0.867597
0.127733 0.186343 0.917845
0.67155 0.191913 0.956008
0.985183 0.1617 0.978195
0.985183 0.161563 0.978195
0 0.532692 0.988647
0 0.515068 0.987442
0.437629 0.447425 0.948486
0.982391 0.391012 0.977462
0.982834 0.37731 0.977844
0.0855116 0.947555 0.994492
0.0859846 0.944259 0.995117
0.0884413 0.918257 1
0.881529 0.878325 0.927764
0.931105 0.878477 0.930678
0.0788128 0.980514 0.988388
0.0788128 0.980514 0.988388
0.0788128 0.980514 0.988388
0.877195 0.939269 0.940246
0.995605 0.995605 0.995605
