public/space-rising/footage-review-2026-04-29/thumbs/_luts/Neutral_4D8K_65x.cube
TITLE "Generated by Resolve"
LUT_3D_SIZE 65
0.00772107 0.00772107 0.00772107
0.00772107 0.00772107 0.00772107
0.00772107 0.00772107 0.00772107
0.00772107 0.00772107 0.00772107
0.00772107 0.00772107 0.00772107
0.0244297 0.00856031 0.00790417
0.0356146 0.0090486 0.00717174
0.0480201 0.00950637 0.00657664
0.0620737 0.0099794 0.00595102
0.0768597 0.0104524 0.00529488
0.0898756 0.0109102 0.0047303
0.102342 0.011368 0.00421149
0.116075 0.0119478 0.00381476
0.130587 0.0127565 0.00370794
0.145342 0.0139773 0.00410468
0.159976 0.0157015 0.00561532
0.175448 0.0176242 0.00773632
0.193515 0.0193179 0.00961318
0.214664 0.020676 0.0111849
0.237919 0.022034 0.0127565
0.261997 0.0233768 0.014435
0.286824 0.0247044 0.0162661
0.312154 0.0265202 0.0186313
0.338186 0.0283665 0.0213626
0.365179 0.0303349 0.0244755
0.392874 0.0317998 0.0280003
0.421454 0.0333257 0.0317998
0.451728 0.0344549 0.0356909
0.482948 0.0351873 0.0397803
0.515312 0.035584 0.0441901
0.54905 0.0356298 0.0489815
0.584527 0.0352331 0.0542
0.621653 0.033814 0.0596323
0.66096 0.0317235 0.0653697
0.703716 0.0287175 0.0715648
0.748409 0.0246738 0.0774395
0.79147 0.0191653 0.0825666
0.833112 0.0121157 0.0867933
0.871382 0.00343328 0.0899062
0.907744 0 0.0942855
0.935164 0 0.0973526
0.946242 0 0.0976272
0.946426 0 0.0953078
0.946532 0 0.0979171
0.946563 0 0.101396
0.946593 0 0.103975
0.946624 0 0.106371
0.946654 0 0.108675
0.946685 0 0.110796
0.946731 0 0.112718
0.946761 0 0.114473
0.946792 0 0.116197
0.946807 0 0.117754
0.946838 0 0.119142
0.946853 0 0.120409
0.946868 0 0.121523
0.946868 0 0.122515
0.946868 0 0.123445
0.946883 0 0.124285
0.946883 0 0.125017
0.946883 0 0.125673
0.946883 0 0.126238
0.946899 0 0.126741
0.946899 0 0.127169
0.946899 0 0.127535
0.00772107 0.00772107 0.00772107
0.00772107 0.00772107 0.00772107
0.00772107 0.00772107 0.00772107
0.00772107 0.00772107 0.00772107
0.00772107 0.00772107 0.00772107
0.0208133 0.00843824 0.0077821
0.0328832 0.00894179 0.00730907
0.0449989 0.00939956 0.00672923
0.0587778 0.00987259 0.00608835
0.0737011 0.0103456 0.00543221
0.0871748 0.0108186 0.00485237
0.100191 0.0112917 0.00430304
0.11426 0.0118715 0.00386053
0.129244 0.012665 0.00369268
0.144503 0.0138857 0.0040589
0.159335 0.0157321 0.00526436
0.174548 0.0180667 0.00698863
0.19234 0.0202487 0.0084535
0.213443 0.0216983 0.0124514
0.236606 0.0236057 0.0105745
0.261616 0.0254063 0.0124361
0.287373 0.0272526 0.0145724
0.313466 0.029099 0.0169833
0.34023 0.0309453 0.0196994
0.367849 0.0327306 0.0227512
0.396216 0.0343328 0.0261387
0.425452 0.0358282 0.0296941
0.456245 0.0368963 0.0332952
0.488121 0.0375219 0.0373541
0.520836 0.0375372 0.0411078
0.554925 0.0369421 0.0453956
0.590768 0.0359197 0.0501106
0.628504 0.0343175 0.0551614
0.668589 0.0319982 0.0605478
0.712245 0.028687 0.0662852
0.757214 0.024445 0.0722362
0.800732 0.0193027 0.0775006
0.842725 0.0125582 0.0818341
0.880308 0.00369268 0.0844892
0.914946 0 0.0876936
0.939116 0 0.090547
0.946105 0 0.0901503
0.94609 0 0.0876478
0.946426 0 0.0919509
0.946502 0 0.0966354
0.946563 0 0.100542
0.946578 0 0.102983
0.946609 0 0.105226
0.946639 0 0.107286
0.94667 0 0.109224
0.9467 0 0.110964
0.946731 0 0.112535
0.946746 0 0.113939
0.946777 0 0.115267
0.946792 0 0.116487
0.946807 0 0.117556
0.946822 0 0.118517
0.946838 0 0.119356
0.946853 0 0.120104
0.946853 0 0.120745
0.946868 0 0.121324
0.946868 0 0.121813
0.946868 0 0.122255
0.946868 0 0.122637
0.946868 0 0.122972
0.00772107 0.00772107 0.00772107
0.00772107 0.00772107 0.00772107
0.00772107 0.00772107 0.00772107
0.00772107 0.00772107 0.00772107
0.00772107 0.00772107 0.00772107
0.0144045 0.00877394 0.00784314
0.0285954 0.0101015 0.00798047
0.0401923 0.010605 0.00779736
0.0529335 0.0112764 0.00753796
0.0670634 0.0120241 0.00727855
0.0809339 0.0128023 0.00701915
0.0947433 0.013611 0.00680552
0.108965 0.0144808 0.00665293
0.124407 0.0155489 0.00672923
0.140459 0.0169223 0.00720226
0.156573 0.0188907 0.00848402
0.172335 0.0214237 0.0104829
0.18999 0.0239261 0.0124361
0.210941 0.0260166 0.0139467
0.234836 0.0277714 0.0152285
0.260517 0.0295567 0.0167391
0.287007 0.0313268 0.0183871
0.313817 0.0330358 0.0202335
0.341192 0.0346838 0.0222324
0.370321 0.0357061 0.0265507
0.398947 0.0372473 0.0250095
0.429007 0.0385901 0.0286259
0.460365 0.0390478 0.0321202
0.492576 0.0389868 0.0356909
0.525887 0.0386358 0.0394446
0.560647 0.0379339 0.0434882
0.597116 0.0367742 0.047837
0.635538 0.0349737 0.0526741
0.676463 0.0324102 0.057435
0.720867 0.0288243 0.0626688
0.765927 0.0242924 0.0678874
0.809415 0.0189059 0.072694
0.851713 0.0125277 0.0770581
0.888792 0.00393683 0.0794385
0.920302 0 0.0809186
0.941772 0 0.0835584
0.945525 0 0.0825971
0.945586 0 0.0812848
0.945983 0 0.0860304
0.946349 0 0.0906233
0.946487 0 0.0950332
0.946548 0 0.0991989
0.946578 0 0.101595
0.946593 0 0.103655
0.946624 0 0.105531
0.946639 0 0.107225
0.94667 0 0.108797
0.946685 0 0.110185
0.9467 0 0.111437
0.946731 0 0.112535
0.946746 0 0.113512
0.946761 0 0.114366
0.946777 0 0.115175
0.946777 0 0.115892
0.946792 0 0.116518
0.946807 0 0.117067
0.946807 0 0.11754
0.946822 0 0.117952
0.946822 0 0.118318
0.946838 0 0.118624
0.00772107 0.00772107 0.00772107
0.00772107 0.00772107 0.00772107
0.00772107 0.00772107 0.00772107
0.00772107 0.00772107 0.00772107
0.00772107 0.00772107 0.00772107
0.0093843 0.00813306 0.00764477
0.0240635 0.0114595 0.00794995
0.0340276 0.0130312 0.00747692
0.045304 0.0141604 0.00730907
0.0580758 0.015259 0.00717174
0.0724193 0.0162814 0.00700389
0.0870985 0.0173495 0.00683604
0.101808 0.0184329 0.00668345
0.117769 0.0196078 0.00668345
0.134829 0.0210269 0.00701915
0.152178 0.0229038 0.00807202
0.169009 0.0254673 0.010132
0.186755 0.0282597 0.0124666
0.207691 0.0307012 0.014313
0.232044 0.0326085 0.0157168
0.258564 0.0345159 0.017319
0.285954 0.036408 0.0191043
0.313664 0.0382239 0.0210422
0.341695 0.039704 0.0230564
0.370352 0.0404517 0.0252537
0.399649 0.0411688 0.0275883
0.429709 0.0416724 0.0298619
0.462806 0.041413 0.03505
0.497124 0.0407721 0.0409857
0.530251 0.0399481 0.0381476
0.56585 0.0390936 0.042298
0.603204 0.0377508 0.0466468
0.642374 0.0357671 0.0511482
0.684321 0.0329595 0.0557565
0.729427 0.0291142 0.0607309
0.774365 0.0243534 0.0653086
0.817914 0.018677 0.069398
0.859846 0.0120089 0.0728618
0.896864 0.00418097 0.074815
0.924727 0 0.0742962
0.944152 0 0.0766155
0.9449 0 0.0750744
0.945052 0 0.0753796
0.94548 0 0.079942
0.945846 0 0.0844129
0.946197 0 0.088716
0.946471 0 0.0927749
0.946502 0 0.0966049
0.946548 0 0.099855
0.946578 0 0.101656
0.946593 0 0.103349
0.946609 0 0.10486
0.946624 0 0.106203
0.946639 0 0.107424
0.946654 0 0.108522
0.94667 0 0.109499
0.946685 0 0.110338
0.9467 0 0.111086
0.946715 0 0.111742
0.946715 0 0.112291
0.946731 0 0.112795
0.946731 0 0.113222
0.946746 0 0.113588
0.946746 0 0.113893
0.946761 0 0.114168
0.00772107 0.00772107 0.00772107
0.00772107 0.00772107 0.00772107
0.00772107 0.00772107 0.00772107
0.00772107 0.00772107 0.00772107
0.00772107 0.00772107 0.00772107
0.00772107 0.00772107 0.00772107
0.0179141 0.0118105 0.00862135
0.0289311 0.0147097 0.00833143
0.0386969 0.0167086 0.00753796
0.0496986 0.0184482 0.00672923
0.0627146 0.0199283 0.00608835
0.0784619 0.0213169 0.00569161
0.0942245 0.0226596 0.00550851
0.110506 0.0240024 0.00553903
0.128237 0.0254673 0.00584421
0.146792 0.0272984 0.00677501
0.165026 0.0297856 0.00881971
0.183169 0.0327764 0.0116121
0.204044 0.0352483 0.013901
0.228641 0.0369116 0.0154879
0.255772 0.0384375 0.0171359
0.283909 0.0399023 0.0189822
0.312337 0.0412604 0.0209506
0.341039 0.0426337 0.0230716
0.370443 0.0433814 0.0254368
0.400427 0.0441444 0.0278782
0.431098 0.0446479 0.0302739
0.463371 0.0445869 0.0323949
0.496513 0.0441291 0.0344549
0.53196 0.0431067 0.0391546
0.570077 0.0415198 0.0464637
0.609171 0.0395056 0.0527962
0.648371 0.03682 0.0500649
0.691447 0.0337377 0.0548104
0.737408 0.0296025 0.0595712
0.782605 0.024567 0.063859
0.826139 0.0186618 0.0674449
0.867658 0.0117342 0.0702983
0.904265 0.00402838 0.0713664
0.930938 0 0.0840772
0.945159 0 0.0857557
0.945251 0 0.0858015
0.945434 0 0.085893
0.944884 0 0.0737774
0.945327 0 0.0780499
0.945647 0 0.0822156
0.945983 0 0.0861677
0.946288 0 0.0898604
0.946471 0 0.0933089
0.946502 0 0.0964828
0.946548 0 0.0993973
0.946563 0 0.100847
0.946578 0 0.102113
0.946593 0 0.103288
0.946609 0 0.104341
0.946624 0 0.105272
0.946624 0 0.106096
0.946639 0 0.106813
0.946639 0 0.107469
0.946654 0 0.108019
0.94667 0 0.108507
0.94667 0 0.108934
0.94667 0 0.1093
0.946685 0 0.109621
0.946685 0 0.109895
0.00859083 0.0120851 0.00863661
0.00840772 0.0112917 0.00842298
0.00830091 0.0104372 0.00822461
0.00839246 0.00949111 0.0080415
0.00848402 0.00854505 0.00773632
0.00794995 0.00788891 0.00767529
0.0131991 0.0111543 0.00877394
0.0248112 0.0156252 0.00965896
0.0332036 0.0184787 0.00924697
0.0428321 0.020798 0.00827039
0.0543221 0.022858 0.00720226
0.0693065 0.0249027 0.0059205
0.0861677 0.0267948 0.00476081
0.102861 0.0283055 0.0040589
0.120882 0.0294652 0.00384527
0.140169 0.0308232 0.0043946
0.159594 0.0327001 0.00613413
0.178408 0.0352178 0.00923171
0.199313 0.037705 0.0120394
0.224125 0.0395972 0.0140688
0.252003 0.0412604 0.0159609
0.281071 0.0428016 0.0180056
0.310414 0.0442206 0.0201877
0.33991 0.0454414 0.0225528
0.370077 0.0464179 0.0250248
0.400793 0.0471809 0.0276646
0.432105 0.047715 0.0302586
0.465003 0.0476692 0.0324865
0.498711 0.0472114 0.034638
0.533516 0.0463417 0.0368505
0.569802 0.0449531 0.0391546
0.609689 0.0426947 0.0453498
0.652689 0.0395819 0.0538033
0.699199 0.0354772 0.062211
0.744274 0.0303502 0.0585641
0.789776 0.0250858 0.0628672
0.833722 0.0188449 0.0663157
0.874937 0.0116579 0.0685435
0.910536 0.00633249 0.0832074
0.935531 0 0.0851911
0.944732 0 0.0855421
0.944778 0 0.0855726
0.945037 0 0.0857099
0.945327 0 0.0858473
0.945556 0 0.0859541
0.945083 0 0.075639
0.945434 0 0.079408
0.945708 0 0.0829786
0.945998 0 0.086305
0.946242 0 0.0893568
0.946456 0 0.0921645
0.946487 0 0.0947127
0.946517 0 0.0970016
0.946548 0 0.0990463
0.946563 0 0.100237
0.946563 0 0.101122
0.946578 0 0.101884
0.946578 0 0.102541
0.946593 0 0.103136
0.946593 0 0.103639
0.946609 0 0.104097
0.946609 0 0.104509
0.946609 0 0.10486
0.946624 0 0.10518
0.946624 0 0.10544
0.0121157 0.0281834 0.0122683
0.0120394 0.0277562 0.0120089
0.0119478 0.0273136 0.0119173
0.0145418 0.026566 0.0122072
0.0166629 0.025803 0.0128328
0.0187839 0.0250553 0.0128786
0.0233005 0.0250553 0.0122072
0.0297704 0.0273899 0.0126802
0.0373083 0.0289921 0.0140078
0.0451972 0.0304112 0.0134737
0.054902 0.0316472 0.0122683
0.0676585 0.032929 0.0104829
0.0833448 0.0340124 0.0078584
0.0992142 0.0348058 0.00541695
0.116014 0.0354009 0.00349432
0.134493 0.0359808 0.00225834
0.153964 0.0366827 0.00288396
0.173251 0.0377966 0.00613413
0.194141 0.040177 0.00939956
0.218982 0.0422827 0.0116426
0.247517 0.044007 0.0136568
0.277516 0.0457008 0.0160372
0.307851 0.0472877 0.0185855
0.338201 0.0485695 0.0212406
0.369192 0.0495918 0.0239719
0.400671 0.0504005 0.0268406
0.432609 0.0509804 0.0296483
0.466163 0.0509651 0.0321202
0.500481 0.0505074 0.0344091
0.535851 0.0495918 0.036759
0.572702 0.048127 0.0392004
0.611215 0.0460212 0.0416876
0.651576 0.043122 0.0441596
0.698772 0.0387732 0.0535592
0.748943 0.0332494 0.0627909
0.797314 0.0267948 0.0709087
0.839933 0.0193484 0.065156
0.880842 0.0119631 0.0672618
0.916182 0.00683604 0.0842145
0.939864 0 0.0862898
0.944228 0 0.0852979
0.944244 0 0.0852979
0.944533 0 0.0854353
0.9449 0 0.0856336
0.945174 0 0.085771
0.945418 0 0.0858778
0.945602 0 0.0859693
0.945129 0 0.0760204
0.945418 0 0.0791943
0.945647 0 0.0821393
0.945876 0 0.0848249
0.946075 0 0.0872969
0.946258 0 0.0894942
0.946395 0 0.0914778
0.946471 0 0.0932326
0.946487 0 0.0948196
0.946502 0 0.0962234
0.946517 0 0.0974289
0.946532 0 0.0985122
0.946548 0 0.0994583
0.946563 0 0.0999161
0.946563 0 0.100298
0.946563 0 0.100633
0.946563 0 0.100923
0.946563 0 0.101167
0.0141756 0.0386969 0.0145571
0.0141299 0.0382544 0.0141604
0.0140383 0.0377966 0.0140841
0.0167239 0.0369879 0.0143435
0.0213169 0.035874 0.0151369
0.0246281 0.0349279 0.0162356
0.0281376 0.0342107 0.0162203
0.0338903 0.0355993 0.0150454
0.040589 0.0373693 0.0151217
0.0491493 0.0388952 0.0151675
0.0599374 0.0399634 0.0177768
0.07187 0.0415503 0.0158694
0.0860914 0.0430152 0.013962
0.100435 0.0443122 0.0115511
0.116335 0.045304 0.0090486
0.13434 0.0460822 0.00622568
0.153704 0.0467994 0.00451667
0.172625 0.0479896 0.0052491
0.191867 0.0493477 0.00688182
0.21503 0.0500038 0.00798047
0.242832 0.0498207 0.00946059
0.273411 0.0492561 0.0128176
0.304692 0.0502174 0.0157931
0.335897 0.0515602 0.0187228
0.367727 0.0526436 0.021912
0.4 0.0535592 0.0251774
0.432609 0.0542611 0.0283818
0.466773 0.0543221 0.0310979
0.501686 0.0538491 0.0336614
0.537591 0.0528878 0.0361639
0.574914 0.0513619 0.0387732
0.613931 0.0491188 0.0413977
0.65481 0.0483406 0.0594186
0.698528 0.0446784 0.0635538
0.747204 0.0390784 0.0681621
0.796918 0.0299229 0.0626383
0.844526 0.0221256 0.0706951
0.886137 0.0138094 0.0750744
0.920607 0.00767529 0.0851148
0.943496 0.000549325 0.0872969
0.943648 0 0.0850385
0.943618 0 0.0850233
0.943984 0 0.0851911
0.944411 0 0.0853742
0.944671 0 0.0855116
0.944991 0 0.0856794
0.94522 0 0.0857862
0.945418 0 0.0858778
0.945586 0 0.0859541
0.945006 0 0.0749371
0.945281 0 0.0774853
0.94548 0 0.0798657
0.945632 0 0.0819715
0.9458 0 0.0838941
0.945937 0 0.0855879
0.946059 0 0.087129
0.946181 0 0.0884565
0.946273 0 0.0896315
0.946349 0 0.0906996
0.94641 0 0.0915999
0.946471 0 0.0923934
0.946471 0 0.09308
0.946471 0 0.0936904
0.946487 0 0.0942245
0.946487 0 0.0946822
0.0160525 0.0498817 0.0167239
0.016022 0.0493782 0.0161898
0.0159457 0.0488594 0.0160983
0.0173037 0.0481422 0.0161898
0.0235904 0.0467689 0.0171054
0.028687 0.0455177 0.018616
0.032105 0.0443427 0.0196994
0.0362707 0.0453956 0.0195163
0.0436103 0.0463874 0.0175784
0.0517586 0.0479591 0.0173953
0.0625772 0.0493782 0.0170291
0.0772259 0.0503395 0.0195315
0.0905928 0.052079 0.0191196
0.104387 0.0536355 0.0171664
0.119509 0.055024 0.0149996
0.136339 0.0562905 0.0124514
0.155184 0.0573281 0.0105287
0.174411 0.0584726 0.00958267
0.193362 0.0597086 0.0099031
0.215656 0.0605325 0.010132
0.242069 0.0605173 0.00959792
0.271763 0.0617075 0.0284581
0.302419 0.0607767 0.0307774
0.333761 0.0592966 0.0332036
0.365728 0.0555276 0.019028
0.398596 0.0563516 0.0223239
0.431861 0.0569924 0.0257572
0.466621 0.0570535 0.028687
0.502083 0.0565652 0.0314183
0.538506 0.0555428 0.0341802
0.576669 0.0568093 0.0531472
0.616114 0.0547646 0.0566567
0.657252 0.051957 0.060441
0.70135 0.0481727 0.064622
0.748089 0.0432136 0.0691844
0.793805 0.0372168 0.0737621
0.842451 0.028397 0.0784619
0.886839 0.0189822 0.0827192
0.924697 0.0068513 0.0731212
0.945891 0.00215152 0.0880903
0.945251 0 0.0858015
0.943084 0 0.0847791
0.943435 0 0.0849317
0.943771 0 0.0850843
0.944152 0 0.0852674
0.944457 0 0.0854047
0.944717 0 0.0855268
0.944976 0 0.0856641
0.945174 0 0.085771
0.945342 0 0.0858473
0.945495 0 0.0859236
0.945602 0 0.0859693
0.944976 0 0.0745861
0.945159 0 0.0764019
0.945327 0 0.0780194
0.945449 0 0.0794995
0.945541 0 0.0807813
0.945632 0 0.0819257
0.945708 0 0.0829328
0.945785 0 0.0838178
0.945861 0 0.084596
0.945922 0 0.0852522
0.945968 0 0.0858473
0.946014 0 0.0863661
0.946044 0 0.0868238
0.0177462 0.0620584 0.0188296
0.0177615 0.0615091 0.0180667
0.0176852 0.0609598 0.0179751
0.0176089 0.0603799 0.0178988
0.0251316 0.0587778 0.0188754
0.0323186 0.0571145 0.0202335
0.0353399 0.0556954 0.0221866
0.0394446 0.0556497 0.0235142
0.0451972 0.0573739 0.0224002
0.0539559 0.0580758 0.0199283
0.0644541 0.0596628 0.0196078
0.078706 0.0610361 0.0187076
0.095552 0.0617685 0.0204013
0.109499 0.0632792 0.0229343
0.123964 0.0650797 0.0202487
0.140841 0.0665446 0.0181888
0.159136 0.0679026 0.016144
0.177859 0.0693675 0.0150759
0.196536 0.0709087 0.0157473
0.217624 0.0719768 0.0154269
0.243381 0.0717784 0.0129702
0.272511 0.0712291 0.011368
0.303151 0.0715343 0.0311437
0.333349 0.0703899 0.0335699
0.364828 0.0686046 0.0361944
0.397742 0.0661936 0.0390784
0.431662 0.0630503 0.0417334
0.466453 0.0634012 0.0446784
0.502403 0.0630655 0.0475776
0.539345 0.0621958 0.0506752
0.577539 0.0607614 0.0539864
0.617334 0.0586557 0.057557
0.658808 0.0557565 0.061387
0.703166 0.0518807 0.0656291
0.750134 0.0468147 0.0702525
0.795712 0.0408179 0.074876
0.839551 0.033814 0.0793469
0.883741 0.0244297 0.0836042
0.922683 0.0141451 0.0870832
0.947738 0.00471504 0.0890059
0.947509 0 0.0868544
0.942657 0 0.0845808
0.942916 0 0.0847028
0.943221 0 0.0848402
0.943526 0 0.0849775
0.943847 0 0.0851301
0.944183 0 0.0852827
0.944533 0 0.0854353
0.9449 0 0.0856336
0.945342 0 0.0858473
0.945739 0 0.0860304
0.946075 0 0.086183
0.94638 0 0.0863203
0.946639 0 0.0864424
0.946868 0 0.0865492
0.947066 0 0.0866407
0.946471 0 0.0750134
0.946685 0 0.076173
0.946883 0 0.0771954
0.947051 0 0.0781109
0.947219 0 0.0789197
0.947341 0 0.0796216
0.947463 0 0.0802167
0.94757 0 0.0807507
0.947646 0 0.0809491
0.0192874 0.0756695 0.0214084
0.019379 0.0751659 0.019791
0.0193332 0.0746624 0.0197299
0.0192874 0.0741436 0.0196841
0.0262303 0.0724804 0.0205844
0.0344244 0.0707408 0.0220035
0.0384527 0.0690013 0.0240482
0.0419776 0.0676738 0.0261082
0.0484321 0.0694285 0.0272068
0.0550698 0.071046 0.0252689
0.0659648 0.0715953 0.0222324
0.0799725 0.0733043 0.021912
0.0960861 0.0744945 0.0205234
0.11339 0.0751659 0.020264
0.130617 0.076524 0.0264897
0.146349 0.0784009 0.0237583
0.164569 0.0799268 0.0220493
0.183658 0.0813611 0.0211185
0.201923 0.083238 0.0215305
0.221561 0.0843977 0.0217441
0.245914 0.0848402 0.0203708
0.274296 0.0839551 0.0172732
0.304021 0.0820325 0.0137789
0.335225 0.0822156 0.033402
0.366232 0.0805982 0.0361334
0.397787 0.0784772 0.0390173
0.430365 0.0754864 0.0420539
0.464652 0.0713207 0.0452125
0.501305 0.0674907 0.0482643
0.538567 0.0667735 0.0514534
0.577096 0.0653849 0.0548257
0.617227 0.0632334 0.0584573
0.658976 0.0602884 0.0623484
0.703426 0.0563211 0.0666056
0.750515 0.0511177 0.0712596
0.796307 0.0449989 0.0759289
0.840253 0.0379187 0.0804303
0.882597 0.0294347 0.0846723
0.920913 0.0196536 0.0881971
0.948608 0.00944533 0.0902419
0.9523 0.00138857 0.0890822
0.945983 0 0.0861524
0.94551 0 0.0859236
0.946609 0 0.0864271
0.946471 0 0.0863661
0.946517 0 0.0863966
0.94699 0 0.0866102
0.947448 0 0.0868238
0.94789 0 0.0870222
0.948302 0 0.0872206
0.94873 0 0.0874037
0.949081 0 0.0875715
0.949325 0 0.0876936
0.949599 0 0.0878157
0.949874 0 0.087953
0.950118 0 0.0880598
0.950317 0 0.0881514
0.950469 0 0.0882277
0.950622 0 0.0882887
0.950759 0 0.088365
0.950805 0 0.0883803
0.950072 0 0.0757458
0.950149 0 0.0762493
0.950225 0 0.0766918
0.950271 0 0.0770733
0.0202792 0.0896468 0.0241093
0.0204929 0.0892042 0.0210269
0.0204623 0.0888075 0.0210117
0.0204471 0.0884108 0.0209659
0.026215 0.0874189 0.0218204
0.0355383 0.0860761 0.0233158
0.0415503 0.0843671 0.0250401
0.0447852 0.0829633 0.027863
0.0506905 0.0836194 0.030808
0.0580301 0.0851606 0.0310369
0.0664225 0.0866865 0.0282444
0.0807507 0.0869001 0.0243839
0.095964 0.0886549 0.0239261
0.112642 0.0895857 0.0227207
0.132448 0.0901198 0.0202335
0.153048 0.0906996 0.0272679
0.171572 0.0921645 0.0284886
0.189853 0.0939498 0.0268864
0.208499 0.0956436 0.027512
0.228229 0.0972152 0.0283513
0.251087 0.0981155 0.0270695
0.277958 0.0978714 0.0244755
0.306813 0.0964828 0.0218204
0.336385 0.0937972 0.0182956
0.366903 0.0908675 0.0154574
0.399771 0.0910353 0.0381476
0.431922 0.0881819 0.0413672
0.464363 0.0848249 0.0446784
0.499168 0.0800183 0.0478218
0.536217 0.0738231 0.051133
0.575265 0.0699016 0.0547341
0.615534 0.0679026 0.0585489
0.657328 0.0652171 0.0626993
0.701808 0.0616007 0.0673381
0.749081 0.056672 0.0723278
0.795254 0.0503853 0.0770275
0.839292 0.0430915 0.081529
0.882078 0.0343175 0.0858015
0.920974 0.0243229 0.0894026
0.94995 0.0142977 0.0915999
0.956039 0.00614939 0.0908675
0.952056 0.00105287 0.0889601
0.951797 0.000747692 0.0888533
0.951553 0.000427253 0.0887312
0.951324 0.000137331 0.0886244
0.950881 0 0.088426
0.950698 0 0.0883345
0.951339 0.00015259 0.0886244
0.951293 9.15541e-05 0.0886091
0.951293 0.000106813 0.0886091
0.951476 0.000335698 0.0887007
0.951629 0.000534066 0.088777
0.951797 0.000732433 0.088838
0.951919 0.000900282 0.0889143
0.952056 0.00106813 0.0889754
0.952163 0.00120546 0.0890211
0.95227 0.00132753 0.0890669
0.952361 0.00146487 0.0891127
0.952453 0.00157168 0.0891585
0.952529 0.00167849 0.0892042
0.952605 0.00177005 0.0892348
0.952667 0.00183108 0.08925
0.952697 0.00189212 0.0892805
0.952743 0.0019379 0.0892958
0.952773 0.00196841 0.0893111
0.0206912 0.103365 0.0268559
0.0209964 0.102922 0.0216678
0.0209812 0.102617 0.0216678
0.0209812 0.102296 0.0216526
0.0246586 0.101732 0.0222019
0.0353094 0.100664 0.0240177
0.0431067 0.0995041 0.0257572
0.0477607 0.0982071 0.0281987
0.0518654 0.0978103 0.0315099
0.0591592 0.0992905 0.0349584
0.0687114 0.100603 0.0341344
0.0802319 0.101732 0.0300145
0.0959945 0.101625 0.0256046
0.111543 0.103471 0.0249943
0.130465 0.104189 0.0240482
0.15314 0.104128 0.0204318
0.17673 0.104677 0.0268406
0.198077 0.105745 0.033875
0.215213 0.107927 0.0330816
0.234775 0.109682 0.0341344
0.257816 0.110796 0.0334936
0.284321 0.110826 0.03122
0.311635 0.110201 0.0283055
0.340063 0.108522 0.0255589
0.369787 0.105501 0.0225376
0.400519 0.101137 0.0187686
0.433722 0.101061 0.0395209
0.466346 0.0976577 0.0431678
0.500114 0.0933852 0.0465705
0.534936 0.0882429 0.0500038
0.571939 0.0818494 0.0537118
0.611994 0.073991 0.057908
0.654032 0.0699779 0.0621347
0.698253 0.0662699 0.0667277
0.745342 0.0615396 0.0718853
0.791989 0.0559701 0.0773022
0.836576 0.0496223 0.0827039
0.879988 0.040589 0.0870375
0.919631 0.0301061 0.0906691
0.9505 0.0194247 0.0929885
0.95964 0.0108034 0.092607
0.955993 0.00608835 0.0908522
0.956191 0.00631724 0.0909438
0.955932 0.0059968 0.0908217
0.955703 0.00572213 0.0905013
0.95552 0.00546273 0.0908217
0.955306 0.00520333 0.0905165
0.955123 0.00495918 0.090425
0.954742 0.00447089 0.0902419
0.954406 0.00404364 0.090074
0.954101 0.00366217 0.0899367
0.953857 0.00334173 0.0898146
0.953994 0.00352483 0.0898756
0.954559 0.00425727 0.0901503
0.954528 0.00421149 0.090135
0.954513 0.00419623 0.090135
0.954498 0.00416571 0.0901198
0.954482 0.00415045 0.0901198
0.954498 0.00416571 0.0901198
0.954559 0.00424201 0.0901503
0.954604 0.0043183 0.0901808
0.954665 0.00437934 0.0901961
0.954696 0.00442512 0.0902266
0.954742 0.00447089 0.0902419
0.954772 0.00451667 0.0902571
0.0206607 0.117662 0.0297093
0.0209506 0.117189 0.0232395
0.0210117 0.116869 0.0217746
0.0210117 0.116594 0.0217746
0.0216678 0.116274 0.0218814
0.033463 0.115373 0.0239109
0.0439765 0.114458 0.025864
0.0495308 0.113268 0.027863
0.0536812 0.112367 0.031281
0.0598154 0.113252 0.0350195
0.0686198 0.114824 0.0386358
0.0808881 0.116182 0.0361181
0.0945144 0.116762 0.0312657
0.111009 0.116365 0.0261845
0.128038 0.118318 0.0256199
0.149859 0.118853 0.0247196
0.175265 0.118486 0.0208591
0.200153 0.11928 0.0271916
0.223667 0.120134 0.0390173
0.24239 0.122332 0.0404059
0.264683 0.123873 0.0395514
0.291005 0.124361 0.0373541
0.318578 0.124056 0.0349584
0.346212 0.12314 0.0321355
0.374517 0.121218 0.0291295
0.40441 0.117739 0.026276
0.435248 0.112505 0.0226902
0.466911 0.107012 0.0197299
0.501869 0.10663 0.0438849
0.53669 0.101503 0.0477913
0.572061 0.0954452 0.0516976
0.609033 0.0888838 0.0559396
0.64889 0.0813611 0.0605325
0.69279 0.0717479 0.0657664
0.739712 0.0667735 0.0708934
0.78677 0.0610666 0.0763256
0.831357 0.0547494 0.0818036
0.875608 0.0473487 0.0875257
0.916564 0.037583 0.0920882
0.950164 0.0260624 0.0946517
0.963745 0.0162203 0.0946059
0.959716 0.0109102 0.0926375
0.960021 0.0113069 0.0927901
0.960311 0.0116884 0.0929274
0.960586 0.0120394 0.0930648
0.960662 0.0121462 0.0930953
0.960449 0.0118715 0.0930037
0.960266 0.0116121 0.0928969
0.960067 0.011368 0.0928054
0.959915 0.0111696 0.0927291
0.959762 0.0109712 0.092668
0.959625 0.0107881 0.0925917
0.959472 0.0105745 0.0925154
0.959197 0.0102235 0.0923934
0.958968 0.00993362 0.0922866
