public/space-rising/footage-review-2026-04-29/thumbs/_luts/Neutral_4D8K_65x.cube
TITLE "Generated by Resolve"
LUT_3D_SIZE 9
0.00772107 0.00772107 0.00772107
0.0620737 0.0099794 0.00595102
0.175448 0.0176242 0.00773632
0.365179 0.0303349 0.0244755
0.621653 0.033814 0.0596323
0.935164 0 0.0973526
0.946685 0 0.110796
0.946868 0 0.122515
0.946899 0 0.127535
0.0160525 0.0498817 0.0167239
0.0436103 0.0463874 0.0175784
0.155184 0.0573281 0.0105287
0.365728 0.0555276 0.019028
0.657252 0.051957 0.060441
0.945251 0 0.0858015
0.945174 0 0.085771
0.945541 0 0.0807813
0.946044 0 0.0868238
0.0192721 0.168933 0.0401312
0.0562142 0.165637 0.0263981
0.162844 0.1682 0.025391
0.396445 0.172793 0.0480812
0.65124 0.126131 0.0418708
0.964782 0.0406043 0.0989548
0.976974 0.0348363 0.101045
0.977798 0.0357671 0.101076
0.978103 0.0361181 0.101076
0.0420691 0.387793 0.0785992
0.0575265 0.381949 0.0130312
0.136461 0.380484 0.0286259
0.389319 0.378958 0.0119326
0.701991 0.371374 0.0612345
0.970306 0.324666 0.0435645
1 0.283452 0.0278477
1 0.267903 0.0236515
1 0.261799 0.038941
0.0871138 0.670848 0.186847
0.107652 0.668345 0.144305
0.135592 0.662806 0.0490883
0.345373 0.647822 0.0730907
0.651392 0.616266 0.0397803
0.947753 0.615991 0.0119173
1 0.602426 0.0432288
1 0.597421 0.0455787
1 0.595438 0.0465248
0.169421 0.918593 0.288182
0.189914 0.916945 0.254612
0.218402 0.914199 0.189792
0.270405 0.902708 0.0414282
0.665187 0.872709 0.108522
0.886473 0.845258 0.157504
0.976455 0.86746 0.126711
0.976638 0.865095 0.124239
0.97673 0.864027 0.123156
0.18407 0.979583 0.354162
0.207218 0.978332 0.324727
0.239551 0.976471 0.268925
0.293477 0.972641 0.06421
0.585702 0.956603 0.185321
0.852522 0.934844 0.158434
0.996231 0.941756 0.28246
1 0.944366 0.282017
1 0.944366 0.282017
0.151659 0.981369 0.385092
0.178698 0.979858 0.360113
0.216571 0.977813 0.310796
0.28748 0.973144 0.0970779
0.539132 0.960433 0.170443
0.83505 0.936538 0.105196
0.987991 0.93872 0.287556
1 0.944366 0.282017
1 0.944366 0.282017
0.137224 0.982361 0.395392
0.166598 0.980468 0.372381
0.206439 0.978378 0.325826
0.281041 0.973632 0.129213
0.522637 0.961791 0.163256
0.828748 0.936629 0.0932021
0.984161 0.937407 0.291127
1 0.944366 0.282017
1 0.944366 0.282017
0.00746166 0.00831617 0.033341
0.05626 0.0101015 0.043473
0.180926 0.0117647 0.0847334
0.371435 0.025391 0.0957351
0.624979 0.0246891 0.107759
0.93959 0 0.134081
0.945953 0 0.147692
0.945251 0 0.160449
0.945006 0 0.165866
0.0136721 0.0365911 0.0364233
0.0339208 0.0339208 0.0339208
0.177996 0.0328679 0.025452
0.390478 0.0384985 0.0349737
0.681071 0.0344549 0.0741741
0.946395 0 0.0992142
0.946777 0 0.114977
0.946883 0 0.124773
0.946899 0 0.12871
0.0189059 0.160693 0.0864271
0.0182345 0.158114 0.0513924
0.154528 0.158419 0.0342565
0.393637 0.153353 0.0412299
0.655482 0.10692 0.0540322
0.96466 0.0174563 0.0950637
0.95816 0.00888075 0.0918898
0.957534 0.00807202 0.0915847
0.95758 0.0081178 0.0915999
0.0295567 0.38378 0.131655
0.0387884 0.380453 0.0925307
0.0963607 0.370657 0.00767529
0.382437 0.372107 0.0127718
0.703212 0.358236 0.065507
0.972824 0.305928 0.0379644
1 0.261524 0.0389258
1 0.243824 0.0379644
1 0.236484 0.0376287
0.0511788 0.667811 0.231434
0.0776684 0.665324 0.196323
0.111864 0.660883 0.123537
0.321645 0.64593 0.0681773
0.647898 0.61268 0.0384833
0.949554 0.609888 0.0122072
1 0.595499 0.0464942
1 0.590311 0.0488746
1 0.587854 0.0506142
0.135576 0.916762 0.325673
0.160204 0.915053 0.296178
0.194018 0.912337 0.240742
0.250813 0.902449 0.0387274
0.652903 0.872129 0.115496
0.883909 0.842481 0.153841
0.976791 0.863264 0.122347
0.977035 0.860533 0.11957
0.977127 0.859358 0.118379
0.151461 0.981384 0.38526
0.177966 0.979889 0.360891
0.215366 0.97789 0.312657
0.286671 0.973205 0.101274
0.56968 0.957916 0.181094
0.848371 0.935302 0.145098
0.995377 0.941436 0.282734
1 0.944366 0.282017
1 0.944366 0.282017
0.110643 0.984329 0.41062
0.144198 0.981872 0.390616
0.187854 0.979385 0.349767
0.271672 0.974365 0.174792
0.51986 0.96202 0.162036
0.830488 0.936767 0.0940414
0.986252 0.938125 0.289082
1 0.944366 0.282017
1 0.944366 0.282017
0.0918593 0.985733 0.419425
0.129046 0.982956 0.400458
0.176272 0.97998 0.362661
0.265858 0.974777 0.197864
0.502754 0.963394 0.153903
0.824537 0.936263 0.0914626
0.982223 0.936751 0.292927
1 0.944366 0.282017
1 0.944366 0.282017
0.00663767 0.00679026 0.112596
0.0737011 0.0105745 0.119448
0.175586 0.0128328 0.139651
0.370336 0.0204166 0.18703
0.630701 0.0222324 0.23621
0.941421 0 0.207279
0.942611 0 0.228824
0.942611 0.00314336 0.263203
0.943084 0.0056611 0.27953
0.00177005 0.0296941 0.102541
0.0239872 0.007187 0.120989
0.16759 0.0154726 0.135317
0.391516 0.0263981 0.177264
0.686793 0.027924 0.165164
0.945006 0 0.162234
0.944442 0 0.179644
0.943816 0 0.193149
0.943557 0 0.199145
0.0214237 0.145693 0.147066
0.0215152 0.142702 0.144594
0.150729 0.150729 0.150729
0.428031 0.136461 0.135439
0.713649 0.0769818 0.116808
0.946471 0 0.104005
0.946822 0 0.118044
0.946899 0 0.12694
0.946899 0 0.130571
0.0404669 0.369253 0.206867
0.0340734 0.369558 0.181125
0.0218967 0.366857 0.116197
0.376654 0.365698 0.094728
0.68838 0.349508 0.106477
0.973709 0.275319 0.051194
1 0.216007 0.0366369
1 0.192844 0.0357061
1 0.183047 0.0354009
0 0.664408 0.290547
0.0129091 0.661509 0.263523
0.0604868 0.65626 0.211734
0.280659 0.641428 0.0622416
0.641886 0.6065 0.0635233
0.952911 0.599771 0.0136873
1 0.582895 0.0542916
1 0.57586 0.0591592
1 0.573144 0.0609293
0.0621805 0.91577 0.37229
0.0973983 0.912734 0.351675
0.144228 0.909331 0.309026
0.232395 0.899992 0.110491
0.6309 0.871687 0.124483
0.879499 0.837659 0.147478
0.977401 0.856443 0.11548
0.977707 0.853117 0.112306
0.977844 0.851728 0.110994
0.0823224 0.986481 0.423896
0.119112 0.983688 0.406134
0.167575 0.980423 0.371435
0.260639 0.975128 0.215244
0.541512 0.960235 0.171313
0.841749 0.935943 0.124834
0.993713 0.94081 0.28336
1 0.944366 0.282017
1 0.944366 0.282017
0.0355535 0.990021 0.445701
0.0714733 0.987305 0.428901
0.131319 0.982788 0.3991
0.241184 0.976379 0.265476
0.487205 0.964065 0.144259
0.823926 0.936217 0.091249
0.983322 0.937133 0.29192
1 0.944366 0.282017
1 0.944366 0.282017
0.0268254 0.990784 0.45449
0.0535286 0.988693 0.437263
0.114763 0.984024 0.408469
0.23267 0.976883 0.282826
0.47216 0.964401 0.133104
0.817685 0.935668 0.089662
0.979004 0.935683 0.296345
1 0.944366 0.282017
1 0.944366 0.282017
0.0247501 0.00280766 0.229908
0.0905165 0.00384527 0.251469
0.182742 0.0128786 0.279286
0.375647 0.0156863 0.313726
0.633295 0.0196994 0.350805
0.938582 0.00418097 0.458152
0.942901 0.00231937 0.482506
0.942565 0.00234989 0.497307
0.942412 0.00241093 0.504265
0 0.0221561 0.236851
0.0340581 0.0011902 0.261234
0.161273 0.00909438 0.298512
0.3953 0.0170901 0.332677
0.675517 0.0187076 0.364492
0.944106 0.00436408 0.453086
0.94316 0.00236515 0.471626
0.942946 0.00231937 0.480858
0.942855 0.00231937 0.484337
0.00363165 0.106416 0.255421
0 0.0894484 0.255558
0.100801 0.0742504 0.3019
0.396277 0.0645151 0.337636
0.679988 0.0391089 0.372061
0.945907 0.00994888 0.393362
0.945571 0.00827039 0.413703
0.94519 0.00708019 0.426047
0.945052 0.00668345 0.430259
0.0297093 0.338567 0.34522
0.0299992 0.335836 0.342855
0.0400702 0.330861 0.338186
0.355795 0.355795 0.355795
0.72224 0.339132 0.325902
1 0.24715 0.281117
1 0.191546 0.252979
1 0.169009 0.244434
1 0.160159 0.241184
0 0.65066 0.425391
0 0.649256 0.411765
0 0.646906 0.38616
0.128405 0.634943 0.278889
0.626307 0.596155 0.259663
0.935409 0.591363 0.245029
0.999527 0.575601 0.200748
0.999802 0.568139 0.198489
0.999939 0.565209 0.197528
0 0.908522 0.472892
0 0.907378 0.458595
0 0.905394 0.433112
0.0907759 0.893431 0.340902
0.575265 0.866041 0.215808
0.866651 0.82446 0.180011
0.979568 0.835874 0.0968643
0.980163 0.830961 0.0928817
0.980392 0.829068 0.0914168
0.019852 0.992905 0.515053
0.0213474 0.992447 0.500877
0.0241855 0.991577 0.476127
0.133669 0.98262 0.39765
0.448569 0.965194 0.11606
0.823682 0.936187 0.0911574
0.988312 0.938827 0.287083
1 0.944366 0.282017
1 0.944366 0.282017
0.0179446 0.993469 0.535195
0.0192264 0.993088 0.52134
0.0217136 0.99234 0.497475
0.0884565 0.986007 0.421012
0.354604 0.970138 0.0776837
0.805936 0.934569 0.0897231
0.973816 0.933944 0.301854
1 0.944366 0.282017
1 0.944366 0.282017
0.017319 0.993652 0.542672
0.0184939 0.993301 0.528984
0.0208438 0.992599 0.505394
0.0702373 0.987411 0.42948
0.33312 0.970901 0.0729839
0.799344 0.934356 0.100694
0.967895 0.931914 0.307988
1 0.944366 0.282017
1 0.944366 0.282017
0.0513313 0 0.386999
0.115328 0.0192569 0.41622
0.197604 0.00610361 0.442023
0.374701 0.0218051 0.495979
0.633951 0.0120394 0.542153
0.939971 0.00515755 0.566232
0.941634 0.00489815 0.588968
0.940948 0.00411994 0.604654
0.940597 0.00366217 0.613581
0 0.00488289 0.438834
0.0664378 0.000137331 0.447807
0.172168 0.00611887 0.473976
0.387304 0.0251011 0.533318
0.672633 0.0114137 0.574289
0.941772 0.00489815 0.581582
0.941299 0.00453193 0.596262
0.940978 0.00415045 0.604013
0.940841 0.00399786 0.607172
0 0.0517281 0.455283
0 0.033051 0.47306
0.0808576 0.00271611 0.47602
0.353277 0.0239719 0.53286
0.674296 0.027985 0.576715
0.942412 0.00549325 0.568078
0.942184 0.00547799 0.57734
0.941955 0.00523384 0.58201
0.941878 0.00515755 0.583795
0 0.273671 0.543328
0 0.262577 0.544854
0 0.23827 0.540459
0.272618 0.23534 0.555901
0.678355 0.209262 0.596735
0.978714 0.13283 0.581643
0.969573 0.0656748 0.564645
0.961547 0.0440528 0.550301
0.957641 0.0347448 0.545007
0.00814832 0.611292 0.624704
0.00830091 0.60943 0.623072
0.00852979 0.606485 0.620478
0.0741588 0.593729 0.605203
0.584741 0.584741 0.584741
0.949584 0.587854 0.565545
0.985122 0.564828 0.543526
0.985412 0.553658 0.535256
0.985504 0.549508 0.532357
0 0.88397 0.644373
0 0.883116 0.63772
0 0.881804 0.626474
0 0.878355 0.590097
0.417823 0.853483 0.525994
0.829053 0.808209 0.544793
0.977188 0.810162 0.507118
0.976959 0.803098 0.5028
0.976883 0.800427 0.5019
0.0159304 0.994003 0.678981
0.0154726 0.994141 0.670939
0.014786 0.994354 0.657404
0.013962 0.994629 0.615534
0.0556191 0.990066 0.466911
0.829892 0.943023 0.553262
0.974701 0.939971 0.542092
1 0.944533 0.471153
1 0.943404 0.471382
0.0167544 0.993652 0.693889
0.0162814 0.993851 0.685496
0.0155032 0.994125 0.671427
0.0139773 0.994614 0.628382
0.0253147 0.991241 0.466773
0.801221 0.944915 0.521523
0.952377 0.935912 0.516808
1 0.944869 0.34313
1 0.944808 0.337331
0.0170748 0.993515 0.699458
0.0165866 0.993713 0.690974
0.0157931 0.994034 0.676738
0.0140383 0.994583 0.633417
0.0245518 0.99147 0.473106
0.785061 0.946059 0.511833
0.941238 0.936584 0.501884
1 0.94461 0.342245
1 0.944579 0.310979
0.0901045 0.0259098 0.591516
0.148943 0.0322423 0.610605
0.228565 0.0444953 0.637766
0.401144 0.0561227 0.69894
0.63714 0.0598154 0.774151
0.938216 0.0129244 0.810636
0.948623 0.00276188 0.838788
0.959884 0.0262608 0.868345
0.965393 0.0396582 0.883543
0.0234684 0.0462501 0.660655
0.100038 0.0492409 0.676997
0.200229 0.0551308 0.692119
0.40853 0.0713359 0.749813
0.670832 0.0733196 0.820386
0.954513 0.016083 0.838483
0.956954 0.0196689 0.860746
0.963134 0.0340887 0.876097
0.965255 0.0394293 0.881804
0 0.0773785 0.698741
0 0.062501 0.707042
0.104158 0.0629435 0.717113
0.369665 0.0751354 0.75346
0.658808 0.0764477 0.822461
0.957519 0.0290684 0.837842
0.957595 0.0225223 0.848325
0.962142 0.0331273 0.858854
0.963775 0.0372168 0.862654
0 0.210346 0.693202
0 0.193805 0.695338
0 0.164538 0.699641
0.185504 0.121782 0.741207
0.587945 0.101198 0.792218
0.94078 0.0599985 0.809293
0.961334 0.0368963 0.800381
0.963378 0.0418555 0.80589
0.96405 0.0435035 0.80795
0 0.574533 0.852155
0 0.569909 0.854826
0 0.56202 0.859434
0 0.529305 0.867491
0.517281 0.497047 0.782559
0.905028 0.476875 0.814618
0.993576 0.447593 0.788495
0.993545 0.435798 0.783856
0.993561 0.431373 0.782147
0.0162509 0.835798 0.857099
0.016144 0.83444 0.855985
0.0159609 0.832258 0.854154
0.01561 0.826352 0.849378
0.38645 0.804807 0.812818
0.798901 0.798901 0.798901
0.95024 0.785229 0.771405
0.950256 0.779034 0.765927
0.950286 0.776547 0.763821
0.0316014 0.982376 0.861509
0.0306554 0.982071 0.857572
0.0291447 0.981628 0.851087
0.0249943 0.980514 0.831861
0.0129702 0.975784 0.765316
0.732097 0.923537 0.774289
0.921828 0.913039 0.80264
0.949538 0.920516 0.790051
0.949493 0.918975 0.787747
0.037995 0.987533 0.878828
0.0371252 0.987732 0.874311
0.0357061 0.988067 0.866819
0.0319066 0.988983 0.844633
0.0217746 0.992081 0.761166
0.685176 0.947265 0.758526
0.917082 0.935607 0.801709
0.962448 0.94345 0.799649
0.964767 0.943801 0.795239
0.0391089 0.987289 0.884413
0.0381628 0.987503 0.879683
0.0366369 0.987854 0.871778
0.0325322 0.98883 0.848524
0.022034 0.991974 0.764035
0.664225 0.94963 0.750027
0.911559 0.934783 0.795819
0.957534 0.941848 0.797955
0.966033 0.943847 0.788769
0.0988937 0.113283 0.817914
0.162463 0.122042 0.839216
0.242618 0.129915 0.856794
0.422095 0.153216 0.893584
0.656199 0.177096 0.945327
0.940658 0.173007 0.979202
0.984924 0.157504 0.97789
0.984924 0.157504 0.97789
0.984924 0.157504 0.97789
0.00375372 0.158709 0.874708
0.0766613 0.174655 0.901503
0.192615 0.180896 0.916899
0.422782 0.187274 0.925597
0.679301 0.191882 0.956893
0.967803 0.165484 0.978912
0.984924 0.157504 0.97789
0.984924 0.157504 0.97789
0.984924 0.157504 0.97789
0 0.172152 0.86157
0 0.176394 0.879759
0.0793011 0.185245 0.912764
0.381292 0.185504 0.922393
0.663096 0.191943 0.955047
0.959762 0.168063 0.97911
0.985214 0.162203 0.978241
0.985245 0.162692 0.978271
0.98526 0.162997 0.978286
0 0.216037 0.846204
0 0.207309 0.850309
0 0.192905 0.856245
0.127581 0.17911 0.910369
0.583291 0.188052 0.94284
0.912383 0.190112 0.97818
0.986099 0.181506 0.97937
0.986145 0.1832 0.979461
0.986175 0.183825 0.979477
0 0.538109 0.95758
0 0.533471 0.959243
0 0.524544 0.961547
0 0.493797 0.968124
0.452049 0.479362 0.935653
0.831556 0.444587 0.956558
0.98703 0.41474 0.962982
0.988342 0.401923 0.959731
0.988754 0.397086 0.958556
0 0.805722 0.987472
0 0.80354 0.98764
0 0.8 0.987945
0 0.789609 0.988907
0.338399 0.758465 0.974212
0.735714 0.724895 0.904311
0.95082 0.720424 0.912016
0.958724 0.712444 0.909682
0.959381 0.709499 0.909209
0.0663157 0.958999 0.976211
0.0659037 0.958175 0.975616
0.0652323 0.956863 0.974655
0.0635691 0.953353 0.972152
0.0573892 0.940642 0.962432
0.721508 0.903075 0.905043
0.937438 0.937438 0.937438
0.947601 0.909941 0.906874
0.946258 0.906981 0.904067
0.0681468 0.981765 0.980301
0.0670481 0.981888 0.979141
0.0652018 0.982101 0.977218
0.0599069 0.982681 0.971725
0.0537423 0.984283 0.946502
0.672999 0.943694 0.897688
0.907713 0.952682 0.919036
0.962798 0.960098 0.934279
0.961913 0.957107 0.928542
0.0708324 0.981445 0.983063
0.0697948 0.981567 0.98201
0.0679179 0.981781 0.980056
0.0619211 0.982452 0.973831
0.0537118 0.984283 0.946349
0.65156 0.9449 0.893935
0.890654 0.945159 0.907332
0.961669 0.96141 0.935821
0.960601 0.956207 0.924437
0.0952926 0.18584 0.914656
0.168276 0.185489 0.919936
0.255482 0.182483 0.921813
0.43534 0.187716 0.927077
0.668574 0.191943 0.955673
0.955047 0.169421 0.979171
0.984924 0.157504 0.97789
0.984924 0.157504 0.97789
0.984924 0.157504 0.97789
0.0281529 0.182437 0.904189
0.110887 0.186175 0.91632
0.220874 0.183642 0.921431
0.434806 0.187686 0.927001
0.688228 0.191836 0.957855
0.974807 0.162875 0.978653
0.984924 0.157504 0.97789
0.984924 0.157504 0.97789
0.984924 0.157504 0.97789
0 0.173541 0.864134
0 0.179126 0.891783
0.11487 0.186252 0.916716
0.391623 0.185962 0.922988
0.669154 0.191928 0.955734
0.964797 0.166552 0.979019
0.985183 0.16173 0.97821
0.985199 0.161761 0.97821
0.985199 0.161852 0.97821
0 0.246769 0.882002
0 0.230961 0.878065
0 0.2038 0.870649
0.146914 0.186007 0.918959
0.586969 0.191424 0.946563
0.913375 0.186831 0.97911
0.986023 0.179614 0.979278
0.986068 0.180941 0.979339
0.986099 0.181506 0.97937
0 0.539254 0.989136
0 0.533944 0.988739
0 0.522683 0.987945
0 0.486748 0.984939
0.440742 0.457664 0.946166
0.817975 0.426993 0.963607
0.982071 0.401984 0.977234
0.982345 0.392432 0.977432
0.982452 0.388815 0.977523
0 0.798321 0.997971
0 0.796139 0.997635
0 0.792645 0.99707
0 0.781064 0.99501
0.302113 0.74728 0.994293
0.716442 0.712139 0.927596
0.938659 0.711666 0.951537
0.953948 0.703731 0.952346
0.954421 0.700893 0.952789
0.084947 0.94963 0.994079
0.0850843 0.948501 0.994293
0.0853132 0.946624 0.994644
0.0860304 0.941436 0.995636
0.0875105 0.922805 0.999161
0.726146 0.887434 0.945937
0.887724 0.885328 0.929244
0.93753 0.889357 0.93402
0.935897 0.88574 0.931991
0.0788128 0.980514 0.988388
0.0788128 0.980514 0.988388
0.0788128 0.980514 0.988388
0.0788128 0.980514 0.988388
0.0773632 0.980682 0.988296
0.664042 0.941802 0.944335
0.899428 0.944762 0.945052
0.984909 0.984909 0.984909
0.986496 0.98146 0.981109
0.0788128 0.980514 0.988388
0.0788128 0.980514 0.988388
0.0788128 0.980514 0.988388
0.0788128 0.980514 0.988388
0.0772412 0.980697 0.988281
0.621424 0.947143 0.945846
0.878492 0.939956 0.934035
0.98085 0.988052 0.982818
0.990539 0.989853 0.985107
0.121614 0.186297 0.917327
0.188464 0.184863 0.920638
0.271595 0.182071 0.921874
0.444236 0.188006 0.928283
0.677272 0.191913 0.956664
0.963043 0.167102 0.979049
0.984924 0.157504 0.97789
0.984924 0.157504 0.97789
0.984924 0.157504 0.97789
0.0460517 0.183505 0.907622
0.127642 0.186313 0.91783
0.232929 0.1832 0.921614
0.440223 0.187869 0.927718
0.692622 0.191791 0.958312
0.977539 0.161669 0.978485
0.984924 0.157504 0.97789
0.984924 0.157504 0.97789
0.984924 0.157504 0.97789
0 0.173968 0.867597
0 0.180117 0.895705
0.127733 0.186343 0.917845
0.395651 0.186175 0.923247
0.67155 0.191913 0.956008
0.966476 0.165988 0.978958
0.985183 0.1617 0.978195
0.985183 0.161501 0.978195
0.985183 0.161563 0.978195
0 0.244511 0.881437
0 0.228489 0.87744
0 0.201068 0.869841
0.155917 0.185809 0.919402
0.588785 0.19144 0.946761
0.914305 0.183719 0.978973
0.986007 0.17908 0.979263
0.986053 0.180255 0.979324
0.986068 0.180743 0.979339
0 0.532692 0.988647
0 0.527123 0.988251
0 0.515068 0.987442
0 0.478218 0.983368
0.437629 0.447425 0.948486
0.814557 0.417121 0.963867
0.982391 0.391012 0.977462
0.982712 0.380972 0.977737
0.982834 0.37731 0.977844
0 0.79588 0.997635
0 0.793347 0.997208
0 0.789181 0.99649
0 0.77612 0.994064
0.292363 0.740841 0.994446
0.712596 0.705425 0.927474
0.937575 0.704768 0.952636
0.955077 0.696864 0.953414
0.955535 0.693965 0.953857
0.0855116 0.947555 0.994492
0.0856794 0.946288 0.994736
0.0859846 0.944259 0.995117
0.0866712 0.938598 0.996185
0.0884413 0.918257 1
0.721736 0.882399 0.946319
0.881529 0.878325 0.927764
0.931914 0.881254 0.931502
0.931105 0.878477 0.930678
0.0788128 0.980514 0.988388
0.0788128 0.980514 0.988388
0.0788128 0.980514 0.988388
0.0788128 0.980514 0.988388
0.0788128 0.980514 0.988388
0.671336 0.939132 0.946319
0.896803 0.93817 0.945357
0.978714 0.978225 0.983719
0.984634 0.978485 0.984527
0.0788128 0.980514 0.988388
0.0788128 0.980514 0.988388
0.0788128 0.980514 0.988388
0.0788128 0.980514 0.988388
0.0788128 0.980514 0.988388
0.609171 0.948699 0.952453
0.877195 0.939269 0.940246
0.979675 0.987228 0.987442
0.995605 0.995605 0.995605
